!!!!SEGMENT: pl-cz--iii-679--011_volckmer-augustin--missa-in-d-pleni-sunt.krn
!!!cenid: 17xx:1183
!!!COM: Volckmer, Augustin
!!!COM-rismID: pe30020656
!!!CDT: 1755-~1820
!!!CNT:
!!!OPR: Missa in D
!!!OTL: Pleni Sunt
!!!OMV: 011
!!!PDT:
!!!AGN: Sacred; Mass
!!!SMS-siglum: PL-CZ
!!!SMS-shelfmark: III-679
!!!SMS-shelfwork: 001-011 M
!!!SMS-variant:
!!!SMS-altvar:
!!!NIFC-rismSourceID: 300001394
!!!NIFC-islandoraID: pl-cz:40002
!!!URL-pdf-islandora: https://repozytorium.nifc.pl/islandora/object/pl-cz%3A40002/datastream/PDF/view
!!!URL-scan:
!!!ONB-nifc: UWAGA: części Mszy: Sinfonia, Kyrie, Gloria, Domine Deus, Cum Sancto Spiritu, In gloria Dei Patris, Credo, Et incarnatus, Et resurrexit, Sanctus, Pleni Sunt, Benedictus, Agnus Dei, Dona nobis
!!!AIN: 1 alto 1 bass 2 clrno 2 cor 2 fagot 1 flt 2 oboe 1 organ 1 soprn 1 tenor 1 timpa 2 viola 1 viole 2 violn
!!!key: D
**kern	**dynam	**fb	**kern	**dynam	**kern	**dynam	**kern	**dynam	**kern	**dynam	**kern	**text	**kern	**text	**kern	**text	**kern	**text	**dynam	**kern	**dynam	**kern	**dynam	**kern	**dynam	**kern	**dynam	**kern	**dynam	**kern	**dynam	**kern	**dynam	**kern	**dynam	**kern	**dynam	**kern	**dynam
*part19	*part19	*	*part18	*part18	*part17	*part17	*part16	*part16	*part15	*part15	*part14	*part14	*part13	*part13	*part12	*part12	*part11	*part11	*part11	*part10	*part10	*part9	*part9	*part8	*part8	*part7	*part7	*part6	*part6	*part5	*part5	*part4	*part4	*part3	*part3	*part2	*part2	*part1	*part1
*staff19	*	*	*staff18	*	*staff17	*	*staff16	*	*staff15	*	*staff14	*staff14	*staff13	*staff13	*staff12	*staff12	*staff11	*staff11	*	*staff10	*	*staff9	*	*staff8	*	*staff7	*	*staff6	*	*staff5	*	*staff4	*	*staff3	*	*staff2	*	*staff1	*
*group	*group	*	*group4	*group4	*group4	*group4	*group4	*group4	*group4	*group4	*group3	*group3	*group3	*group3	*group3	*group3	*group3	*group3	*group3	*group	*group	*group2	*group2	*group2	*group2	*group2	*group2	*group2	*group2	*group1	*group1	*group1	*group1	*group1	*group1	*group1	*group1	*group1	*group1
*I"Organo. v Violone	*	*	*I"Viola. Secundo.	*	*I"Viola Primo.	*	*I"Violino Secundo.	*	*I"Violino. Primo.	*	*I"Baſso.	*	*I"Tenore.	*	*I"Alto.	*	*I"Canto.	*	*	*I"Timpano	*	*I"Clarino Secundo	*	*I"Clarino Primo	*	*I"Corno Secundo.	*	*I"Corno Primo:	*	*I"Fagotho Secundo.	*	*I"Fagotho Primo.	*	*I"Hautbois Secundo.	*	*I"Hautbois Primo.	*	*I"Flauto.	*
*I'org and vlne	*	*	*I'vla 2	*	*I'vla 1	*	*I'vl 2	*	*I'vl 1	*	*I'B	*	*I'T	*	*I'A	*	*I'S	*	*	*I'timp	*	*I'clno 2	*	*I'clno 1	*	*I'cor 2	*	*I'cor 1	*	*I'fag 2	*	*I'fag 1	*	*I'ob 2	*	*I'ob 1	*	*I'fl	*
*Iorgan&Iviole	*	*	*Iviola	*	*Iviola	*	*Ivioln	*	*Ivioln	*	*Ibass	*	*Itenor	*	*Ialto	*	*Isoprn	*	*	*Itimpa	*	*Iclrno	*	*Iclrno	*	*Icor	*	*Icor	*	*Ifagot	*	*Ifagot	*	*Ioboe	*	*Ioboe	*	*Iflt	*
*ICklav&ICstr	*	*	*ICstr	*	*ICstr	*	*ICstr	*	*ICstr	*	*ICvox	*	*ICvox	*	*ICvox	*	*ICvox	*	*	*ICidio	*	*ICbras	*	*ICbras	*	*ICbras	*	*ICbras	*	*ICww	*	*ICww	*	*ICww	*	*ICww	*	*ICww	*
*clefF4	*	*	*clefC3	*	*clefC3	*	*clefG2	*	*clefG2	*	*clefF4	*	*clefC4	*	*clefC3	*	*clefC1	*	*	*clefF4	*	*clefG2	*	*clefG2	*	*clefG2	*	*clefG2	*	*clefF4	*	*clefF4	*	*clefG2	*	*clefG2	*	*clefG2	*
*	*	*	*	*	*	*	*	*	*	*	*	*	*	*	*	*	*	*	*	*	*	*ITrd-1c-2	*	*ITrd-1c-2	*	*ITrd6c10	*	*ITrd6c10	*	*	*	*	*	*	*	*	*	*	*
*k[f#c#]	*	*	*k[f#c#]	*	*k[f#c#]	*	*k[f#c#]	*	*k[f#c#]	*	*k[f#c#]	*	*k[f#c#]	*	*k[f#c#]	*	*k[f#c#]	*	*	*k[f#c#]	*	*k[f#c#]	*	*k[f#c#]	*	*k[f#c#]	*	*k[f#c#]	*	*k[f#c#]	*	*k[f#c#]	*	*k[f#c#]	*	*k[f#c#]	*	*k[f#c#]	*
*D:	*	*	*D:	*	*D:	*	*D:	*	*D:	*	*D:	*	*D:	*	*D:	*	*D:	*	*	*D:	*	*D:	*	*D:	*	*D:	*	*D:	*	*D:	*	*D:	*	*D:	*	*D:	*	*D:	*
*M3/4	*	*	*M3/4	*	*M3/4	*	*M3/4	*	*M3/4	*	*M3/4	*	*M3/4	*	*M3/4	*	*M3/4	*	*	*M3/4	*	*M3/4	*	*M3/4	*	*M3/4	*	*M3/4	*	*M3/4	*	*M3/4	*	*M3/4	*	*M3/4	*	*M3/4	*
=1	=1	=1	=1	=1	=1	=1	=1	=1	=1	=1	=1	=1	=1	=1	=1	=1	=1	=1	=1	=1	=1	=1	=1	=1	=1	=1	=1	=1	=1	=1	=1	=1	=1	=1	=1	=1	=1	=1	=1
*	*	*above	*	*	*	*	*	*	*	*	*	*	*	*	*	*	*	*	*	*	*	*	*	*	*	*	*	*	*	*	*	*	*	*	*	*	*	*	*
!	!	!	!	!	!	!	!	!	!	!	!	!	!	!	!	!	!LO:TX:t=P:problem=kolejność znaków cc# f#	!	!	!LO:TX:a:t=1	!	!	!	!	!	!	!	!	!	!	!	!	!	!	!	!	!	!	!
!	!	!	!	!	!	!	!	!	!	!	!LO:TX:a:t=1.	!	!LO:TX:t=P:problem=kolejność znaków c# F#	!	!LO:TX:a:t=1.	!	!LO:TX:a:t=1.	!	!	!LO:TX:t=P:problem=brak znaków przy kluczu	!	!	!	!	!	!	!	!	!	!	!	!	!	!	!	!	!	!	!
!LO:TX:a:i:t=Tutti	!	!	!LO:TX:a:i:t=Allo	!LO:DY:a	!LO:TX:a:i:t=Allo	!	!LO:TX:a:i:t=Allo.	!	!LO:TX:a:i:t=allo	!	!LO:TX:a:i:t=Allo.	!	!LO:TX:a:t=1.	!	!LO:TX:a:i:t=Allo.	!	!LO:TX:a:i:t=Allo.	!	!	!LO:TX:a:i:t=allo	!	!LO:TX:a:i:t=Allo	!	!LO:TX:a:i:t=Allo	!	!LO:TX:a:i:t=allo	!	!LO:TX:a:i:t=Allo	!	!LO:TX:a:i:t=Allegro	!LO:DY:a	!LO:TX:a:i:t=Allegro	!LO:DY:a	!LO:TX:a:i:t=Allo.	!	!LO:TX:a:i:t=Allo.	!	!LO:TX:a:i:B:t=allo	!
!	!	!	!	!	!	!LO:DY:b:rj:t=for	!	!LO:DY:b:rj	!	!LO:DY:b:rj	!	!	!	!	!	!	!	!	!	!	!	!	!	!	!	!	!	!	!	!	!	!	!	!	!	!	!	!	!
!	!	!	!	!	!	!	!	!	!	!	!	!	!	!	!	!	!	!	!	!	!	!	!LO:DY:b:t=for	!	!	!	!LO:DY:b:t=for	!	!	!	!LO:DY:a:t=Forte	!	!LO:DY:a:t=forte	!	!	!	!	!	!LO:DY:b:t=for
4D\	.	.	16d\LL	f	16d\LL	f	16d/LL	f	16d/LL	f	2.r	.	2.r	.	2.r	.	2.r	.	.	2.r	.	2.r	f	2.r	.	2.r	f	2.r	.	4D\	f	4D\	f	2.r	.	2.r	f	8.dd\L	f
.	.	.	16d\	.	16d\	.	16d/	.	16d/	.	.	.	.	.	.	.	.	.	.	.	.	.	.	.	.	.	.	.	.	.	.	.	.	.	.	.	.	.	.
.	.	.	16d\	.	16d\	.	16d/	.	16d/	.	.	.	.	.	.	.	.	.	.	.	.	.	.	.	.	.	.	.	.	.	.	.	.	.	.	.	.	.	.
.	.	.	16d\JJ	.	16d\JJ	.	16d/JJ	.	16d/JJ	.	.	.	.	.	.	.	.	.	.	.	.	.	.	.	.	.	.	.	.	.	.	.	.	.	.	.	.	16dd\K	.
*	*	*	*tremolo	*	*tremolo	*	*	*	*tremolo	*	*	*	*	*	*	*	*	*	*	*	*	*	*	*	*	*	*	*	*	*	*	*	*	*	*	*	*	*	*
4r	.	.	16f#\LL	.	16f#\LL	.	16f#/LL	.	16f#/LL	.	.	.	.	.	.	.	.	.	.	.	.	.	.	.	.	.	.	.	.	4r	.	4r	.	.	.	.	.	8.ff#\	.
.	.	.	16f#\	.	16f#\	.	16f#/	.	16f#/	.	.	.	.	.	.	.	.	.	.	.	.	.	.	.	.	.	.	.	.	.	.	.	.	.	.	.	.	.	.
.	.	.	16f#\	.	16f#\	.	16f#/	.	16f#/	.	.	.	.	.	.	.	.	.	.	.	.	.	.	.	.	.	.	.	.	.	.	.	.	.	.	.	.	.	.
.	.	.	16f#\JJ	.	16f#\JJ	.	16f#/JJ	.	16f#/JJ	.	.	.	.	.	.	.	.	.	.	.	.	.	.	.	.	.	.	.	.	.	.	.	.	.	.	.	.	16ff#\K	.
4r	.	.	16a\LL	.	16a\LL	.	16a/LL	.	16a/LL	.	.	.	.	.	.	.	.	.	.	.	.	.	.	.	.	.	.	.	.	4r	.	4r	.	.	.	.	.	8.aa\	.
.	.	.	16a\	.	16a\	.	16a/	.	16a/	.	.	.	.	.	.	.	.	.	.	.	.	.	.	.	.	.	.	.	.	.	.	.	.	.	.	.	.	.	.
.	.	.	16a\	.	16a\	.	16a/	.	16a/	.	.	.	.	.	.	.	.	.	.	.	.	.	.	.	.	.	.	.	.	.	.	.	.	.	.	.	.	.	.
.	.	.	16a\JJ	.	16a\JJ	.	16a/JJ	.	16a/JJ	.	.	.	.	.	.	.	.	.	.	.	.	.	.	.	.	.	.	.	.	.	.	.	.	.	.	.	.	16aa\Jk	.
*	*	*	*Xtremolo	*	*Xtremolo	*	*	*	*Xtremolo	*	*	*	*	*	*	*	*	*	*	*	*	*	*	*	*	*	*	*	*	*	*	*	*	*	*	*	*	*	*
=2	=2	=2	=2	=2	=2	=2	=2	=2	=2	=2	=2	=2	=2	=2	=2	=2	=2	=2	=2	=2	=2	=2	=2	=2	=2	=2	=2	=2	=2	=2	=2	=2	=2	=2	=2	=2	=2	=2	=2
!	!	!	!	!	!	!	!LO:TX:t=P:problem=mixed beam	!	!	!	!	!	!	!	!	!	!	!	!LO:DY:a	!	!	!	!	!	!	!	!	!	!	!	!	!	!	!	!	!	!	!	!
!	!	!	!	!	!	!	!	!	!	!	!	!	!	!	!	!	!	!	!LO:DY:a:t=for&colon;	!	!	!	!	!	!	!	!	!	!	!	!	!	!	!	!	!	!	!	!
!	!	!	!	!	!	!	!	!	!	!	!	!	!	!	!	!	!	!	!	!	!	!	!	!	!LO:DY:b:t=for	!	!	!	!LO:DY:b:t=for	!	!	!	!	!	!LO:DY:b:rj:t=for&colon;	!	!	!	!
!	!	!	!	!	!	!	!	!	!	!	!	!	!	!	!	!	!	!	!	!	!LO:DY:b:t=for	!	!	!	!	!	!	!	!	!	!	!	!	!	!	!	!	!	!
4D/	.	X 3	4f#\	.	4a 4d\	.	8.f#\L	.	8.dd\L	.	4d\	Ple-	4d\	Ple-	4f#\	Ple-	4dd\|	Ple-	f	4D\	f	4f#/	.	4dd\	f	4F#/	.	4d\	f	4D\	.	4D\	.	4dd\|	f	4dd\|	.	4ddd'\	.
.	.	.	.	.	.	.	16dd\Jk	.	16ff#\Jk	.	.	.	.	.	.	.	.	.	.	.	.	.	.	.	.	.	.	.	.	.	.	.	.	.	.	.	.	.	.
!	!	!	!LO:SIC:v:s=4e&colon;t=lub 4a	!	!LO:SIC:v:n=2&colon;s=4e	!	!	!	!	!	!	!	!	!	!	!	!	!	!	!	!	!	!	!	!	!	!	!	!	!	!	!	!	!	!	!	!	!	!
!	!	!	!	!	!	!	!LO:LB:g=original	!	!	!	!	!	!	!	!	!	!	!	!	!	!	!	!	!	!	!	!	!	!	!	!	!	!	!	!	!	!	!	!
4AA/	.	X 5	4f#\	.	4a 4d\	.	4cc#\	.	4ee\	.	4A\	-ni	4c#\	-ni	4a\	-ni	4ee\|	-ni	.	4AA/	.	4a/	.	4ee\	.	4A/	.	4e\	.	4AA/	.	4AA/	.	4cc#\|	.	4ee\|	.	4eee'\	.
4r	.	.	4r	.	4r	.	4r	.	4r	.	4r	.	4r	.	4r	.	4r	.	.	4r	.	4r	.	4r	.	4r	.	4r	.	4r	.	4r	.	4r	.	4r	.	4r	.
=3	=3	=3	=3	=3	=3	=3	=3	=3	=3	=3	=3	=3	=3	=3	=3	=3	=3	=3	=3	=3	=3	=3	=3	=3	=3	=3	=3	=3	=3	=3	=3	=3	=3	=3	=3	=3	=3	=3	=3
*	*	*	*	*	*	*	*	*	*	*	*	*ij	*	*ij	*	*	*	*	*	*	*	*	*	*	*	*	*	*	*	*	*	*	*	*	*	*	*	*	*
4AA/	.	X 7	8g\L	.	4a\	.	8.cc#\L	.	8.ee\L	.	4A\	Ple-	4c#\|	Ple-	4a\	Ple-	4ee\|	Ple-	.	4AA/	.	4a/	.	4ee\	.	4A/	.	4e\	.	4AA/	.	4AA/	.	4cc#\|	.	4ee\	.	4eee'\	.
.	.	.	8g\J	.	.	.	.	.	.	.	.	.	.	.	.	.	.	.	.	.	.	.	.	.	.	.	.	.	.	.	.	.	.	.	.	.	.	.	.
.	.	.	.	.	.	.	16ee\Jk	.	16gg\Jk	.	.	.	.	.	.	.	.	.	.	.	.	.	.	.	.	.	.	.	.	.	.	.	.	.	.	.	.	.	.
4D\	.	X 3	4f#\	.	4a\	.	4dd\	.	4ff#\	.	4d\	-ni	4d\	-ni	4a\	-ni	4ff#\|	-ni	.	4D\	.	4dd\	.	4ff#\	.	4d\	.	4f#\	.	4D\	.	4D\	.	4dd\|	.	4ff#\	.	4fff#'\	.
*	*	*	*	*	*	*	*	*	*	*	*	*Xij	*	*Xij	*	*	*	*	*	*	*	*	*	*	*	*	*	*	*	*	*	*	*	*	*	*	*	*	*
4r	.	.	4r	.	4r	.	4r	.	4r	.	4r	.	4r	.	4r	.	4r	.	.	4r	.	4r	.	4r	.	4r	.	4r	.	4r	.	4r	.	4r	.	4r	.	4r	.
=4	=4	=4	=4	=4	=4	=4	=4	=4	=4	=4	=4	=4	=4	=4	=4	=4	=4	=4	=4	=4	=4	=4	=4	=4	=4	=4	=4	=4	=4	=4	=4	=4	=4	=4	=4	=4	=4	=4	=4
!LO:TX:a:t=2.	!	!	!LO:TX:a:t=2	!	!LO:TX:a:t=2	!	!LO:TX:a:i:t=Dolce	!	!LO:TX:b:i:t=Dolce	!	!LO:TX:a:t=3.	!	!LO:TX:a:t=2.	!	!LO:TX:a:t=3.	!	!LO:TX:a:t=2.	!	!	!LO:TX:a:t=4	!	!LO:TX:a:t=3	!	!LO:TX:a:t=3	!	!LO:TX:a:t=3	!	!LO:TX:a:t=3	!	!LO:TX:a:t=2.	!	!LO:TX:a:t=2.	!	!LO:TX:a:t=2	!	!LO:TX:a:t=2	!	!LO:TX:a:t=3	!
1.r	.	.	1.r	.	1.r	.	(16f#/LL	.	(16aa\LL	.	1.r	.	1.r	.	1.r	.	1.r	.	.	0.r	.	1.r	.	1.r	.	1.r	.	1.r	.	1.r	.	1.r	.	1.r	.	1.r	.	1.r	.
.	.	.	.	.	.	.	16e/	.	16gg\	.	.	.	.	.	.	.	.	.	.	.	.	.	.	.	.	.	.	.	.	.	.	.	.	.	.	.	.	.	.
.	.	.	.	.	.	.	16d/	.	16ff#\	.	.	.	.	.	.	.	.	.	.	.	.	.	.	.	.	.	.	.	.	.	.	.	.	.	.	.	.	.	.
.	.	.	.	.	.	.	16e/JJ)	.	16gg\JJ)	.	.	.	.	.	.	.	.	.	.	.	.	.	.	.	.	.	.	.	.	.	.	.	.	.	.	.	.	.	.
.	.	.	.	.	.	.	8f#/L'	.	8aa'\L	.	.	.	.	.	.	.	.	.	.	.	.	.	.	.	.	.	.	.	.	.	.	.	.	.	.	.	.	.	.
.	.	.	.	.	.	.	8d'/	.	8ff#'\	.	.	.	.	.	.	.	.	.	.	.	.	.	.	.	.	.	.	.	.	.	.	.	.	.	.	.	.	.	.
.	.	.	.	.	.	.	8f#'/	.	8aa'\	.	.	.	.	.	.	.	.	.	.	.	.	.	.	.	.	.	.	.	.	.	.	.	.	.	.	.	.	.	.
.	.	.	.	.	.	.	8d/J	.	8ff#'\J	.	.	.	.	.	.	.	.	.	.	.	.	.	.	.	.	.	.	.	.	.	.	.	.	.	.	.	.	.	.
=5	=5	=5	=5	=5	=5	=5	=5	=5	=5	=5	=5	=5	=5	=5	=5	=5	=5	=5	=5	=5	=5	=5	=5	=5	=5	=5	=5	=5	=5	=5	=5	=5	=5	=5	=5	=5	=5	=5	=5
.	.	.	.	.	.	.	(8f#/L	.	(8aa\L	.	.	.	.	.	.	.	.	.	.	.	.	.	.	.	.	.	.	.	.	.	.	.	.	.	.	.	.	.	.
.	.	.	.	.	.	.	8d/)	.	8ff#\)	.	.	.	.	.	.	.	.	.	.	.	.	.	.	.	.	.	.	.	.	.	.	.	.	.	.	.	.	.	.
.	.	.	.	.	.	.	8e/'	.	8gg'\	.	.	.	.	.	.	.	.	.	.	.	.	.	.	.	.	.	.	.	.	.	.	.	.	.	.	.	.	.	.
.	.	.	.	.	.	.	8g/'	.	8ee'\	.	.	.	.	.	.	.	.	.	.	.	.	.	.	.	.	.	.	.	.	.	.	.	.	.	.	.	.	.	.
.	.	.	.	.	.	.	8f#'/	.	8dd'\	.	.	.	.	.	.	.	.	.	.	.	.	.	.	.	.	.	.	.	.	.	.	.	.	.	.	.	.	.	.
.	.	.	.	.	.	.	8e'/J	.	8cc#'\J	.	.	.	.	.	.	.	.	.	.	.	.	.	.	.	.	.	.	.	.	.	.	.	.	.	.	.	.	.	.
=6	=6	=6	=6	=6	=6	=6	=6	=6	=6	=6	=6	=6	=6	=6	=6	=6	=6	=6	=6	=6	=6	=6	=6	=6	=6	=6	=6	=6	=6	=6	=6	=6	=6	=6	=6	=6	=6	=6	=6
!	!	!	!	!	!	!	!	!LO:DY:b:t=for:rj	!	!LO:DY:b:rj	!	!	!	!	!	!	!	!	!LO:DY:a:t=for.	!	!	!	!	!	!	!	!	!	!	!	!	!	!	!	!	!	!	!	!
4D\	.	.	4f#\	.	4a\	.	16d/LL	f	16d/LL	f	2.r	.	4D/	Ple-	2.r	.	(4d/	Ple-	f	.	.	2.r	.	2.r	.	2.r	.	2.r	.	4D\	.	4D\	.	4d/|	.	4d/	.	2.r	.
.	.	.	.	.	.	.	16d/	.	16d/	.	.	.	.	.	.	.	.	.	.	.	.	.	.	.	.	.	.	.	.	.	.	.	.	.	.	.	.	.	.
.	.	.	.	.	.	.	16d/	.	16d/	.	.	.	.	.	.	.	.	.	.	.	.	.	.	.	.	.	.	.	.	.	.	.	.	.	.	.	.	.	.
.	.	.	.	.	.	.	16d/JJ	.	16d/JJ	.	.	.	.	.	.	.	.	.	.	.	.	.	.	.	.	.	.	.	.	.	.	.	.	.	.	.	.	.	.
*	*	*	*	*	*	*	*tremolo	*	*tremolo	*	*	*	*	*	*	*	*	*	*	*	*	*	*	*	*	*	*	*	*	*	*	*	*	*	*	*	*	*	*
4r	.	.	4r	.	4r	.	16f#/LL	.	16f#/LL	.	.	.	4F#/	-ni	.	.	4f#/)	.	.	.	.	.	.	.	.	.	.	.	.	4r	.	4r	.	4f#/|	.	4f#/	.	.	.
.	.	.	.	.	.	.	16f#/	.	16f#/	.	.	.	.	.	.	.	.	.	.	.	.	.	.	.	.	.	.	.	.	.	.	.	.	.	.	.	.	.	.
.	.	.	.	.	.	.	16f#/	.	16f#/	.	.	.	.	.	.	.	.	.	.	.	.	.	.	.	.	.	.	.	.	.	.	.	.	.	.	.	.	.	.
.	.	.	.	.	.	.	16f#/JJ	.	16f#/JJ	.	.	.	.	.	.	.	.	.	.	.	.	.	.	.	.	.	.	.	.	.	.	.	.	.	.	.	.	.	.
4r	.	.	4r	.	4r	.	16a/LL	.	16a/LL	.	.	.	4A/	sunt	.	.	4a/|>	-ni	.	.	.	.	.	.	.	.	.	.	.	4r	.	4r	.	4a/|	.	4a/	.	.	.
.	.	.	.	.	.	.	16a/	.	16a/	.	.	.	.	.	.	.	.	.	.	.	.	.	.	.	.	.	.	.	.	.	.	.	.	.	.	.	.	.	.
.	.	.	.	.	.	.	16a/	.	16a/	.	.	.	.	.	.	.	.	.	.	.	.	.	.	.	.	.	.	.	.	.	.	.	.	.	.	.	.	.	.
.	.	.	.	.	.	.	16a/JJ	.	16a/JJ	.	.	.	.	.	.	.	.	.	.	.	.	.	.	.	.	.	.	.	.	.	.	.	.	.	.	.	.	.	.
=7	=7	=7	=7	=7	=7	=7	=7	=7	=7	=7	=7	=7	=7	=7	=7	=7	=7	=7	=7	=7	=7	=7	=7	=7	=7	=7	=7	=7	=7	=7	=7	=7	=7	=7	=7	=7	=7	=7	=7
*	*	*	*tremolo	*	*tremolo	*	*	*	*	*	*	*	*	*	*	*	*	*	*	*	*	*	*	*	*	*	*	*	*	*	*	*	*	*	*	*	*	*	*
!	!	!	!	!	!	!	!	!	!	!	!	!	!	!	!	!	!	!	!	!	!	!	!	!	!	!	!	!	!	!	!	!	!	!	!	!	!	!	!LO:DY:b:t=for
8D\L|	.	.	16d\LL	.	16d\LL	.	16dd\LL	.	16dd\LL	.	(>4D/	Ple-	4d\	Cae-	(4d\	Ple-	(4dd\	Ple-	.	.	.	8.d/L	.	8.d/L	.	8.D/L	.	8.D/L	.	8D'\L	.	8D'\L	.	4dd\|	.	4dd\	.	4dd\	f
.	.	.	16d\	.	16d\	.	16dd\	.	16dd\	.	.	.	.	.	.	.	.	.	.	.	.	.	.	.	.	.	.	.	.	.	.	.	.	.	.	.	.	.	.
8D\|	.	.	16d\	.	16d\	.	16dd\	.	16dd\	.	.	.	.	.	.	.	.	.	.	.	.	.	.	.	.	.	.	.	.	8D'\	.	8D'\	.	.	.	.	.	.	.
.	.	.	16d\JJ	.	16d\JJ	.	16dd\JJ	.	16dd\JJ	.	.	.	.	.	.	.	.	.	.	.	.	16d/Jk	.	16d/Jk	.	16D/K	.	16D/Jk	.	.	.	.	.	.	.	.	.	.	.
8F#\|	.	.	16f#\LL	.	16f#\LL	.	16ff#\LL	.	16ff#\LL	.	4F#/)	.	4F#/	.	4f#\)	.	4ff#\)	.	.	.	.	8.f#/L	.	8.f#/L	.	8.F#/	.	8.F#/L	.	8F#'\	.	8F#'\	.	4ff#\|	.	4ff#\	.	4ff#\	.
.	.	.	16f#\	.	16f#\	.	16ff#\	.	16ff#\	.	.	.	.	.	.	.	.	.	.	.	.	.	.	.	.	.	.	.	.	.	.	.	.	.	.	.	.	.	.
8F#\|	.	.	16f#\	.	16f#\	.	16ff#\	.	16ff#\	.	.	.	.	.	.	.	.	.	.	.	.	.	.	.	.	.	.	.	.	8F#'\	.	8F#'\	.	.	.	.	.	.	.
.	.	.	16f#\JJ	.	16f#\JJ	.	16ff#\JJ	.	16ff#\JJ	.	.	.	.	.	.	.	.	.	.	.	.	16f#/Jk	.	16f#/Jk	.	16F#/K	.	16F#/Jk	.	.	.	.	.	.	.	.	.	.	.
8A\|	.	.	16a\LL	.	16a\LL	.	16aa\LL	.	16aa\LL	.	4A/	-ni	4A/	-li	4a\	-ni	4aa\	-ni	.	.	.	8.a/L	.	8.a/L	.	8.A/	.	8.A/L	.	8A'\	.	8A'\	.	4aa\|	.	4aa\	.	4aa\	.
.	.	.	16a\	.	16a\	.	16aa\	.	16aa\	.	.	.	.	.	.	.	.	.	.	.	.	.	.	.	.	.	.	.	.	.	.	.	.	.	.	.	.	.	.
8A\J|	.	.	16a\	.	16a\	.	16aa\	.	16aa\	.	.	.	.	.	.	.	.	.	.	.	.	.	.	.	.	.	.	.	.	8A'\J	.	8A'\J	.	.	.	.	.	.	.
.	.	.	16a\JJ	.	16a\JJ	.	16aa\JJ	.	16aa\JJ	.	.	.	.	.	.	.	.	.	.	.	.	16a/Jk	.	16a/Jk	.	16A/Jk	.	16A/Jk	.	.	.	.	.	.	.	.	.	.	.
*	*	*	*Xtremolo	*	*Xtremolo	*	*Xtremolo	*	*Xtremolo	*	*	*	*	*	*	*	*	*	*	*	*	*	*	*	*	*	*	*	*	*	*	*	*	*	*	*	*	*	*
!	!	!	!	!	!	!	!	!	!LO:LB:g=original	!	!	!	!	!	!	!	!	!	!	!	!	!	!	!	!	!	!	!	!	!	!	!	!	!	!	!	!	!	!
!	!	!	!	!	!	!	!	!	!	!	!	!	!	!	!	!	!	!	!	!	!	!	!	!	!	!	!	!	!	!	!	!LO:LB:g=original	!	!	!	!	!	!	!
=8	=8	=8	=8	=8	=8	=8	=8	=8	=8	=8	=8	=8	=8	=8	=8	=8	=8	=8	=8	=8	=8	=8	=8	=8	=8	=8	=8	=8	=8	=8	=8	=8	=8	=8	=8	=8	=8	=8	=8
*	*	*	*	*	*	*	*	*	*	*	*	*ij	*	*	*	*ij	*	*ij	*	*	*	*	*	*	*	*	*	*	*	*	*	*	*	*2\right	*	*2\right	*	*	*
8d\L	.	.	8r	.	8r	.	4ff# 4a 4d/	.	16ddd\LL	.	8d\L	Ple-	4d\	Ple-	4a\	Ple-	4ff#\	Ple-	.	4r	.	4d/	.	4dd\	.	8D/L	.	8d\L	.	8r	.	8r	.	2.ff#\	.	2.aa\	.	8ddd'\L	.
.	.	.	.	.	.	.	.	.	16ddd\	.	.	.	.	.	.	.	.	.	.	.	.	.	.	.	.	.	.	.	.	.	.	.	.	.	.	.	.	.	.
8D\	.	5_ 3_	8f#\|	.	8a\|	.	.	.	16aa\	.	8A\J	.	.	.	.	.	.	.	.	.	.	.	.	.	.	16D/L	.	16d\L	.	8F#\L|	.	8A\L|	.	.	.	.	.	8aa'\	.
.	.	.	.	.	.	.	.	.	16aa\JJ	.	.	.	.	.	.	.	.	.	.	.	.	.	.	.	.	16D/JJ	.	16d\JJ	.	.	.	.	.	.	.	.	.	.	.
*	*	*	*	*	*	*	*	*	*	*	*	*	*	*	*	*	*	*	*	*	*	*	*	*	*	*	*	*tremolo	*	*	*	*	*	*	*	*	*	*	*
*	*	*	*	*	*	*	*	*	*	*	*	*	*	*	*	*	*	*	*	*	*	*	*	*	*	*	*	*2\right	*	*	*	*	*	*	*	*	*	*	*
8F#\	.	.	8d\L|	.	8f#\L|	.	4ff# 4a 4d/	.	16ddd\LL	.	8d\L	-ni	4d\	-ni	4a\	-ni	4ff#\	-ni	.	8D\L	.	8d/L	.	8dd\L	.	8D/L	.	8d\L	.	8D\|	.	8F#\|	.	.	.	.	.	8ddd'\	.
*	*	*	*	*	*	*	*	*	*	*	*	*Xij	*	*	*	*Xij	*	*Xij	*	*	*	*	*	*	*	*	*	*	*	*	*	*	*	*	*	*	*	*	*
.	.	.	.	.	.	.	.	.	16ddd\	.	.	.	.	.	.	.	.	.	.	.	.	.	.	.	.	.	.	.	.	.	.	.	.	.	.	.	.	.	.
8D\	.	.	8f#\J|	.	8a\J|	.	.	.	16aa\	.	8A\J	.	.	.	.	.	.	.	.	8D\J	.	8d/J	.	8dd\J	.	8D/	.	8d\	.	8F#\J|	.	8A\J|	.	.	.	.	.	8aa'\	.
.	.	.	.	.	.	.	.	.	16aa\JJ	.	.	.	.	.	.	.	.	.	.	.	.	.	.	.	.	.	.	.	.	.	.	.	.	.	.	.	.	.	.
8F#\	.	.	4d\	.	4f#\	.	4ff# 4a 4d/	.	16ff#\LL	.	8F#\L	sunt	4d\	sunt	4a\	sunt	4ff#\	sunt	.	4D\	.	4d/	.	4dd\	.	8D/	.	8d\	.	4D\|	.	4F#\	.	.	.	.	.	8ff#'\	.
.	.	X X	.	.	.	.	.	.	16ff#\	.	.	.	.	.	.	.	.	.	.	.	.	.	.	.	.	.	.	.	.	.	.	.	.	.	.	.	.	.	.
8D\J	.	.	.	.	.	.	.	.	16aa\	.	8A\J	.	.	.	.	.	.	.	.	.	.	.	.	.	.	8D/J	.	8d\J	.	.	.	.	.	.	.	.	.	8aa'\J	.
.	.	.	.	.	.	.	.	.	16aa\JJ	.	.	.	.	.	.	.	.	.	.	.	.	.	.	.	.	.	.	.	.	.	.	.	.	.	.	.	.	.	.
*	*	*	*	*	*	*	*	*	*	*	*	*	*	*	*	*	*	*	*	*	*	*	*	*	*	*	*	*Xtremolo	*	*	*	*	*	*	*	*	*	*	*
!	!	!	!LO:LB:g=original	!	!	!	!	!	!	!	!	!	!	!	!	!	!	!	!	!	!	!	!	!	!	!	!	!	!	!	!	!	!	!	!	!	!	!	!
=9	=9	=9	=9	=9	=9	=9	=9	=9	=9	=9	=9	=9	=9	=9	=9	=9	=9	=9	=9	=9	=9	=9	=9	=9	=9	=9	=9	=9	=9	=9	=9	=9	=9	=9	=9	=9	=9	=9	=9
*	*	*	*	*	*	*	*	*	*	*	*	*	*2\right	*	*2\right	*	*2\right	*	*	*	*	*	*	*	*	*	*	*	*	*	*	*	*	*	*	*	*	*	*
8G\L	.	X 3_	8r	.	8r	.	4gg 4b 4d/	.	16ddd\LL	.	8d\L	Cae-	2d\	Cae-	2b\	Cae-	2gg\	Cae-	.	4r	.	4r	.	4r	.	8D/L	.	8d\L	.	8r	.	8r	.	2.gg\	.	2.bb\	.	8ddd'\L	.
.	.	.	.	.	.	.	.	.	16ddd\	.	.	.	.	.	.	.	.	.	.	.	.	.	.	.	.	.	.	.	.	.	.	.	.	.	.	.	.	.	.
8D\	.	.	8b\|	.	8dd\	.	.	.	16bb\	.	8B\	.	.	.	.	.	.	.	.	.	.	.	.	.	.	16D/L	.	16d\L	.	8B\L|	.	8d\L|	.	.	.	.	.	8bb'\	.
.	.	.	.	.	.	.	.	.	16bb\JJ	.	.	.	.	.	.	.	.	.	.	.	.	.	.	.	.	16D/JJ	.	16d\JJ	.	.	.	.	.	.	.	.	.	.	.
*	*	*	*	*	*	*	*	*	*	*	*	*	*	*	*	*	*	*	*	*	*	*	*	*	*	*tremolo	*	*tremolo	*	*	*	*	*	*	*	*	*	*	*
!	!	!	!	!	!LO:LB:g=original	!	!	!	!	!	!	!	!	!	!	!	!	!	!	!	!	!	!	!	!	!	!	!	!	!	!	!	!	!	!	!	!	!	!
8G\	.	.	8g\L|	.	8b\L|	.	4gg 4b 4d/	.	16ddd\LL	.	8d\	.	.	.	.	.	.	.	.	8D\L	.	8d/L	.	8dd\L	.	8D/L	.	8d\L	.	8G\|	.	8B\|	.	.	.	.	.	8ddd'\	.
.	.	X X	.	.	.	.	.	.	16ddd\	.	.	.	.	.	.	.	.	.	.	.	.	.	.	.	.	.	.	.	.	.	.	.	.	.	.	.	.	.	.
8D\J	.	.	8b\J|	.	8dd\J|	.	.	.	16bb\	.	8B\J	.	.	.	.	.	.	.	.	8D\J	.	8d/J	.	8dd\J	.	8D/	.	8d\	.	8B\J|	.	8d\J|	.	.	.	.	.	8bb'\	.
.	.	.	.	.	.	.	.	.	16bb\JJ	.	.	.	.	.	.	.	.	.	.	.	.	.	.	.	.	.	.	.	.	.	.	.	.	.	.	.	.	.	.
8G\L	.	.	4g\	.	4b\	.	4gg 4b 4d/	.	16gg\LL	.	8G\L	-li	4d\	-li	4b\	-li	4gg\	-li	.	4D\	.	4d/	.	4dd\	.	8D/	.	8d\	.	4G\|	.	4B\	.	.	.	.	.	8gg'\	.
.	.	.	.	.	.	.	.	.	16gg\	.	.	.	.	.	.	.	.	.	.	.	.	.	.	.	.	.	.	.	.	.	.	.	.	.	.	.	.	.	.
8E\J	.	.	.	.	.	.	.	.	16bb\	.	8B\J	.	.	.	.	.	.	.	.	.	.	.	.	.	.	8D/J	.	8d\J	.	.	.	.	.	.	.	.	.	8bb'\J	.
.	.	.	.	.	.	.	.	.	16bb\JJ	.	.	.	.	.	.	.	.	.	.	.	.	.	.	.	.	.	.	.	.	.	.	.	.	.	.	.	.	.	.
*	*	*	*	*	*	*	*	*	*	*	*	*	*	*	*	*	*	*	*	*	*	*	*	*	*	*Xtremolo	*	*Xtremolo	*	*	*	*	*	*	*	*	*	*	*
!	!	!	!	!	!	!	!	!	!	!	!	!	!	!	!	!	!	!	!	!	!	!	!	!	!	!	!	!	!	!	!	!	!	!	!LO:LB:g=original	!	!	!	!
!	!	!	!	!	!	!	!	!	!	!	!	!	!	!	!	!	!	!	!	!	!	!	!	!	!	!	!	!	!	!LO:LB:g=original	!	!	!	!	!	!	!	!	!
=10	=10	=10	=10	=10	=10	=10	=10	=10	=10	=10	=10	=10	=10	=10	=10	=10	=10	=10	=10	=10	=10	=10	=10	=10	=10	=10	=10	=10	=10	=10	=10	=10	=10	=10	=10	=10	=10	=10	=10
8F#\L	.	5_ 3_	8r	.	8r	.	4ff# 4a 4d/	.	16ddd\LL	.	8d\L	Cae-	4d\	Cae-	4a\	cae-	4ff#\	Ce-	.	4r	.	4r	.	4r	.	8D/L	.	8d\L	.	8r	.	8r	.	2.ff#\	.	2.aa\	.	8ddd'\L	.
.	.	.	.	.	.	.	.	.	16ddd\	.	.	.	.	.	.	.	.	.	.	.	.	.	.	.	.	.	.	.	.	.	.	.	.	.	.	.	.	.	.
8D\J	.	.	8f#\|	.	8a\|	.	.	.	16aa\	.	8A\J	.	.	.	.	.	.	.	.	.	.	.	.	.	.	16D/L	.	16d\L	.	8F#\L|	.	8A\L|	.	.	.	.	.	8aa'\	.
.	.	X X	.	.	.	.	.	.	16aa\JJ	.	.	.	.	.	.	.	.	.	.	.	.	.	.	.	.	16D/JJ	.	16d\JJ	.	.	.	.	.	.	.	.	.	.	.
*	*	*	*	*	*	*	*	*	*	*	*	*	*	*	*	*	*	*	*	*	*	*	*	*	*	*tremolo	*	*tremolo	*	*	*	*	*	*	*	*	*	*	*
!LO:LB:g=original	!	!	!	!	!	!	!	!	!	!	!	!	!	!	!	!	!	!	!	!	!	!	!	!	!	!	!	!	!	!	!	!	!	!	!	!	!	!	!
8F#\L	.	.	8d\L|	.	8f#\L|	.	4ff# 4a 4d/	.	16ddd\LL	.	8d\L	-li	4d\	-li	4a\	-li	4ff#\	-li	.	8D\L	.	8d/L	.	8dd\L	.	8D/L	.	8d\L	.	8D\|	.	8F#\|	.	.	.	.	.	8ddd'\	.
.	.	.	.	.	.	.	.	.	16ddd\	.	.	.	.	.	.	.	.	.	.	.	.	.	.	.	.	.	.	.	.	.	.	.	.	.	.	.	.	.	.
8D\	.	.	8f#\J|	.	8a\J|	.	.	.	16aa\	.	8A\J	.	.	.	.	.	.	.	.	8D\J	.	8d/J	.	8dd\J	.	8D/	.	8d\	.	8F#\J|	.	8A\J|	.	.	.	.	.	8aa'\	.
.	.	.	.	.	.	.	.	.	16aa\JJ	.	.	.	.	.	.	.	.	.	.	.	.	.	.	.	.	.	.	.	.	.	.	.	.	.	.	.	.	.	.
8F#\	.	.	4d\|	.	4f#\	.	4ff# 4a 4d/	.	16ff#\LL	.	8F#\L	et	4d\	et	4a\	et	4ff#\	et	.	4D\	.	4d/	.	4dd\	.	8D/	.	8d\	.	4D\|	.	4F#\	.	.	.	.	.	8ff#'\	.
.	.	.	.	.	.	.	.	.	16ff#\	.	.	.	.	.	.	.	.	.	.	.	.	.	.	.	.	.	.	.	.	.	.	.	.	.	.	.	.	.	.
8D\J	.	.	.	.	.	.	.	.	16aa\	.	8A\J	.	.	.	.	.	.	.	.	.	.	.	.	.	.	8D/J	.	8d\J	.	.	.	.	.	.	.	.	.	8aa'\J	.
.	.	.	.	.	.	.	.	.	16aa\JJ	.	.	.	.	.	.	.	.	.	.	.	.	.	.	.	.	.	.	.	.	.	.	.	.	.	.	.	.	.	.
*	*	*	*	*	*	*	*	*	*	*	*	*	*	*	*	*	*	*	*	*	*	*	*	*	*	*Xtremolo	*	*Xtremolo	*	*	*	*	*	*	*	*	*	*	*
!	!	!	!	!	!	!	!	!	!	!	!	!	!	!	!	!	!	!LO:LB:g=original	!	!	!	!	!	!	!	!	!	!	!	!	!	!	!	!	!	!	!	!	!
!	!	!	!	!	!	!	!	!	!	!	!LO:LB:g=original	!	!	!	!	!	!	!	!	!	!	!	!	!	!	!	!	!	!	!	!	!	!	!	!	!	!	!LO:LB:g=original	!
=11	=11	=11	=11	=11	=11	=11	=11	=11	=11	=11	=11	=11	=11	=11	=11	=11	=11	=11	=11	=11	=11	=11	=11	=11	=11	=11	=11	=11	=11	=11	=11	=11	=11	=11	=11	=11	=11	=11	=11
*	*	*	*	*	*	*	*^	*	*	*	*	*	*	*	*	*	*	*	*	*	*	*	*	*	*	*	*	*	*	*	*	*	*	*	*	*	*	*	*
!LO:TX:t=P:problem=mixed beam	!	!	!	!	!	!	!	!	!	!	!	!	!	!	!	!	!	!	!	!	!	!	!	!	!	!	!	!	!	!	!	!	!	!	!	!	!	!	!	!
8A\L	.	5_ 3_	8g\	.	8cc#\	.	4ee/	4a\	.	16gg\LL	.	8G\L	ter-	2c#\	ter-	2g\	ter-	2ee\	ter-	.	4AA/	.	8a/L	.	8ee\L	.	4A/	.	4e\	.	8r	.	8r	.	4ee\	.	4gg\	.	8gg'\L	.
.	.	.	.	.	.	.	.	.	.	16gg\	.	.	.	.	.	.	.	.	.	.	.	.	.	.	.	.	.	.	.	.	.	.	.	.	.	.	.	.	.	.
8AA/	.	.	4g\	.	4cc#\	.	.	.	.	16ee\	.	8E\	.	.	.	.	.	.	.	.	.	.	16a/L	.	16ee\L	.	.	.	.	.	8G\L|	.	8e\L|	.	.	.	.	.	8eee'\	.
.	.	.	.	.	.	.	.	.	.	16ee\JJ	.	.	.	.	.	.	.	.	.	.	.	.	16a/JJ	.	16ee\JJ	.	.	.	.	.	.	.	.	.	.	.	.	.	.	.
*	*	*	*	*	*	*	*v	*v	*	*	*	*	*	*	*	*	*	*	*	*	*	*	*	*	*	*	*	*	*	*	*	*	*	*	*	*	*	*	*	*
*	*	*	*	*	*	*	*	*	*	*	*	*	*	*	*	*	*	*	*	*	*	*	*	*tremolo	*	*	*	*	*	*	*	*	*	*	*	*	*	*	*
*	*	*	*	*	*	*	*^	*	*	*	*	*	*	*	*	*	*	*	*	*	*	*	*	*	*	*	*	*	*	*	*	*	*	*	*	*	*	*	*
*	*	*	*	*	*	*	*	*	*	*	*	*	*	*	*	*	*	*	*	*	*	*	*	*	*2\right	*	*	*	*	*	*	*	*	*	*	*	*	*	*	*
8C#/	.	.	.	.	.	.	4ee/	4a\	.	16cc#\LL	.	8C#\	.	.	.	.	.	.	.	.	8AA/L	.	8a/L	.	8ee\L	.	8A/L	.	8e\L	.	8E\|	.	8c#\|	.	4cc#\	.	4ee\	.	8ccc#'\	.
.	.	.	.	.	.	.	.	.	.	16cc#\	.	.	.	.	.	.	.	.	.	.	.	.	.	.	.	.	.	.	.	.	.	.	.	.	.	.	.	.	.	.
8E/	.	.	8e\|	.	8a\L|	.	.	.	.	16a\	.	8AA\J	.	.	.	.	.	.	.	.	8AA/J	.	8a/	.	8ee\	.	8A/J	.	8e\J	.	8G\J|	.	8e\J|	.	.	.	.	.	8aa'\	.
.	.	.	.	.	.	.	.	.	.	16a\JJ	.	.	.	.	.	.	.	.	.	.	.	.	.	.	.	.	.	.	.	.	.	.	.	.	.	.	.	.	.	.
8C#/	.	.	8g\L|	.	8cc#\|	.	4ee/	4a\	.	16g/LL	.	8E\L	-ra	4c#\	-ra	4g\	-ra	4ee\	-ra	.	4AA/	.	8a/	.	8ee\	.	4A/	.	4e\	.	4E\	.	4c#\	.	4ee\	.	4gg\	.	8gg'\	.
.	.	.	.	.	.	.	.	.	.	16g/	.	.	.	.	.	.	.	.	.	.	.	.	.	.	.	.	.	.	.	.	.	.	.	.	.	.	.	.	.	.
8AA/J	.	.	8e\J|	.	8a\J|	.	.	.	.	16e/	.	8G\J	.	.	.	.	.	.	.	.	.	.	8a/J	.	8ee\J	.	.	.	.	.	.	.	.	.	.	.	.	.	8ee'\J	.
.	.	X X	.	.	.	.	.	.	.	16e/JJ	.	.	.	.	.	.	.	.	.	.	.	.	.	.	.	.	.	.	.	.	.	.	.	.	.	.	.	.	.	.
*	*	*	*	*	*	*	*v	*v	*	*	*	*	*	*	*	*	*	*	*	*	*	*	*	*	*	*	*	*	*	*	*	*	*	*	*	*	*	*	*	*
*	*	*	*	*	*	*	*	*	*	*	*	*	*	*	*	*	*	*	*	*	*	*	*	*Xtremolo	*	*	*	*	*	*	*	*	*	*	*	*	*	*	*
!	!	!	!	!	!	!	!	!	!	!	!	!	!	!LO:LB:g=original	!	!	!	!	!	!	!	!	!	!	!	!	!	!	!	!	!	!	!	!	!	!	!	!	!
=12	=12	=12	=12	=12	=12	=12	=12	=12	=12	=12	=12	=12	=12	=12	=12	=12	=12	=12	=12	=12	=12	=12	=12	=12	=12	=12	=12	=12	=12	=12	=12	=12	=12	=12	=12	=12	=12	=12	=12
!LO:TX:t=P:problem=takty 12-15 zapisane jako repetyczna 4 poprzednich taktów	!	!	!	!	!	!	!	!	!LO:TX:t=P:problem=mixed beam	!	!	!	!	!	!	!	!	!	!	!	!	!	!	!	!	!	!	!	!	!	!	!	!	!	!	!	!	!	!
8d\Lyy	.	.	8f#\L|	.	8dd\L|	.	4ff# 4a 4d/	.	8d/L	.	8F#\L	Ple-	4d\	Ple-	4a\	Ple-	4ff#\	Ple-	.	4D\	.	4dd\	.	4ff#\	.	8D/L	.	8d\L	.	8r	.	8r	.	4dd\	.	4ff#\	.	8dd'\L	.
8D\yy	.	.	8f#\J|	.	8a\J|	.	.	.	16aa\L	.	8A\J	.	.	.	.	.	.	.	.	.	.	.	.	.	.	16D/L	.	16d\L	.	8F#\L|	.	8A\L|	.	.	.	.	.	8aa'\	.
.	.	.	.	.	.	.	.	.	16aa\JJ	.	.	.	.	.	.	.	.	.	.	.	.	.	.	.	.	16D/JJ	.	16d\JJ	.	.	.	.	.	.	.	.	.	.	.
*	*	*	*	*	*	*	*	*	*	*	*	*	*	*	*	*	*	*	*	*	*	*	*	*	*	*	*	*tremolo	*	*	*	*	*	*	*	*	*	*	*
8F#\yy	.	.	8d\L|	.	8f#\L|	.	4ff# 4a 4d/	.	16ddd\LL	.	8d\L	-ni	4d\	-ni	4a\	-ni	4ff#\	-ni	.	4r	.	8d/L	.	8dd\L	.	8D/L	.	8d\L	.	8D\|	.	8F#\|	.	2ff#\	.	2aa\	.	8ddd'\	.
.	.	.	.	.	.	.	.	.	16ddd\	.	.	.	.	.	.	.	.	.	.	.	.	.	.	.	.	.	.	.	.	.	.	.	.	.	.	.	.	.	.
8D\yy	.	.	8f#\J|	.	8a\J|	.	.	.	16aa\	.	8A\J	.	.	.	.	.	.	.	.	.	.	8d/J	.	8dd\J	.	8D/	.	8d\	.	8F#\J|	.	8A\J|	.	.	.	.	.	8aa'\	.
.	.	.	.	.	.	.	.	.	16aa\JJ	.	.	.	.	.	.	.	.	.	.	.	.	.	.	.	.	.	.	.	.	.	.	.	.	.	.	.	.	.	.
!	!	!	!	!	!	!	!	!	!LO:LB:g=original	!	!	!	!	!	!	!	!	!	!	!	!	!	!	!	!	!	!	!	!	!	!	!	!	!	!	!	!	!	!
8F#\yy	.	.	4d\	.	4f#\	.	4ff# 4a 4d/	.	16ff#\LL	.	8F#\L	ſunt	4d\	sunt	4a\	sunt	4ff#\	Sunt	.	4r	.	4d/	.	4dd\	.	8D/	.	8d\	.	4D\|	.	4F#\	.	.	.	.	.	8ff#'\	.
.	.	.	.	.	.	.	.	.	16ff#\	.	.	.	.	.	.	.	.	.	.	.	.	.	.	.	.	.	.	.	.	.	.	.	.	.	.	.	.	.	.
8D\Jyy	.	.	.	.	.	.	.	.	16aa\	.	8A\J	.	.	.	.	.	.	.	.	.	.	.	.	.	.	8D/J	.	8d\J	.	.	.	.	.	.	.	.	.	8aa'\J	.
.	.	.	.	.	.	.	.	.	16aa\JJ	.	.	.	.	.	.	.	.	.	.	.	.	.	.	.	.	.	.	.	.	.	.	.	.	.	.	.	.	.	.
*	*	*	*	*	*	*	*	*	*	*	*	*	*	*	*	*	*	*	*	*	*	*	*	*	*	*	*	*Xtremolo	*	*	*	*	*	*	*	*	*	*	*
=13	=13	=13	=13	=13	=13	=13	=13	=13	=13	=13	=13	=13	=13	=13	=13	=13	=13	=13	=13	=13	=13	=13	=13	=13	=13	=13	=13	=13	=13	=13	=13	=13	=13	=13	=13	=13	=13	=13	=13
!	!	!	!	!	!	!	!LO:SIC:v:n=2&colon;s=4b	!	!	!	!	!	!	!	!	!	!	!	!	!	!	!	!	!	!	!	!	!	!	!	!	!	!	!	!	!	!	!	!
!	!	!	!	!	!	!	!LO:SIC:v:n=1&colon;s=4gg	!	!LO:TX:t=P:problem=mixed beam	!	!	!	!	!	!	!	!	!	!	!	!	!	!	!	!	!	!	!	!	!	!	!	!	!	!	!LO:N:vis=2	!	!	!
8G\Lyy	.	.	8r	.	8r	.	4ff# 4a 4d/	.	8d/L	.	8D\L	Cae-	2d\	Cae-	2b\	Cae-	2gg\	Cae-	.	4D\	.	4r	.	4r	.	8D/L	.	8d\L	.	8r	.	8r	.	2.gg\	.	2.bb\	.	8dd'\L	.
8D\yy	.	.	8b\|	.	8dd\|	.	.	.	16bb\L	.	8B\J	.	.	.	.	.	.	.	.	.	.	.	.	.	.	16D/L	.	16d\L	.	8B\L|	.	8d\L|	.	.	.	.	.	8bb'\	.
.	.	.	.	.	.	.	.	.	16bb\JJ	.	.	.	.	.	.	.	.	.	.	.	.	.	.	.	.	16D/JJ	.	16d\JJ	.	.	.	.	.	.	.	.	.	.	.
!	!	!	!	!	!	!	!LO:SIC:v:n=2&colon;s=4b	!	!	!	!	!	!	!	!	!	!	!	!	!	!	!	!	!	!	!	!	!	!	!	!	!	!	!	!	!	!	!	!
!	!	!	!	!	!	!	!LO:SIC:v:n=1&colon;s=4gg	!	!	!	!	!	!	!	!	!	!	!	!	!	!	!	!	!	!	!	!	!	!	!	!	!	!	!	!	!	!	!	!
*	*	*	*	*	*	*	*	*	*	*	*	*	*	*	*	*	*	*	*	*	*	*	*	*	*	*tremolo	*	*tremolo	*	*	*	*	*	*	*	*	*	*	*
8G\yy	.	.	8g\L|	.	8b\L|	.	4ff# 4a 4d/	.	16ddd\LL	.	8d\L	-li	.	.	.	.	.	.	.	4r	.	8d/L	.	8dd\L	.	8D/L	.	8d\L	.	8G\|	.	8B\|	.	.	.	.	.	8ddd'\	.
.	.	.	.	.	.	.	.	.	16ddd\	.	.	.	.	.	.	.	.	.	.	.	.	.	.	.	.	.	.	.	.	.	.	.	.	.	.	.	.	.	.
8D\Jyy	.	.	8b\J|	.	8dd\J|	.	.	.	16bb\	.	8B\J	.	.	.	.	.	.	.	.	.	.	8d/J	.	8dd\J	.	8D/	.	8d\	.	8B\J|	.	8d\J|	.	.	.	.	.	8bb'\	.
.	.	.	.	.	.	.	.	.	16bb\JJ	.	.	.	.	.	.	.	.	.	.	.	.	.	.	.	.	.	.	.	.	.	.	.	.	.	.	.	.	.	.
!	!	!	!	!	!	!	!LO:SIC:v:n=2&colon;s=4b	!	!	!	!	!	!	!	!	!	!	!	!	!	!	!	!	!	!	!	!	!	!	!	!	!	!	!	!	!	!	!	!
!	!	!	!	!	!	!	!LO:SIC:v:n=1&colon;s=4gg	!	!	!	!	!	!	!	!	!	!	!	!	!	!	!	!	!	!	!	!	!	!	!	!	!	!	!	!	!	!	!	!
8G\Lyy	.	.	4g\	.	4b\	.	4ff# 4a 4d/	.	16gg\LL	.	8G\L	et	4d\	-li	4b\	-li	4gg\	-li	.	4r	.	4d/	.	4dd\	.	8D/	.	8d\	.	4E\	.	4B\	.	.	.	.	.	8gg'\	.
.	.	.	.	.	.	.	.	.	16gg\	.	.	.	.	.	.	.	.	.	.	.	.	.	.	.	.	.	.	.	.	.	.	.	.	.	.	.	.	.	.
8E\Jyy	.	.	.	.	.	.	.	.	16bb\	.	8B\J	.	.	.	.	.	.	.	.	.	.	.	.	.	.	8D/J	.	8d\J	.	.	.	.	.	.	.	.	.	8ddd'\J	.
.	.	.	.	.	.	.	.	.	16bb\JJ	.	.	.	.	.	.	.	.	.	.	.	.	.	.	.	.	.	.	.	.	.	.	.	.	.	.	.	.	.	.
*	*	*	*	*	*	*	*	*	*	*	*	*	*	*	*	*	*	*	*	*	*	*	*	*	*	*Xtremolo	*	*Xtremolo	*	*	*	*	*	*	*	*	*	*	*
!	!	!	!	!	!	!	!LO:LB:g=original	!	!	!	!	!	!	!	!	!	!	!	!	!	!	!	!	!	!	!	!	!	!	!	!	!	!	!	!	!	!	!	!
!	!	!	!	!	!	!	!	!	!	!	!	!	!	!	!	!	!	!	!	!	!	!	!	!	!	!	!	!	!	!	!	!	!	!	!	!LO:LB:g=original	!	!	!
!	!	!	!	!	!	!	!	!	!	!	!	!	!	!	!	!	!	!	!	!	!	!	!LO:LB:g=original	!	!LO:LB:g=original	!	!LO:LB:g=original	!	!LO:LB:g=original	!	!	!	!	!	!	!	!	!	!
=14	=14	=14	=14	=14	=14	=14	=14	=14	=14	=14	=14	=14	=14	=14	=14	=14	=14	=14	=14	=14	=14	=14	=14	=14	=14	=14	=14	=14	=14	=14	=14	=14	=14	=14	=14	=14	=14	=14	=14
!	!	!	!	!	!	!	!	!	!LO:TX:t=P:problem=mixed beam	!	!	!	!	!	!	!	!	!	!	!	!	!	!	!	!	!	!	!	!	!	!	!	!	!	!	!	!	!	!
8F#\Lyy	.	.	8r	.	8r	.	4ff# 4a 4d/	.	8d/L	.	8D\L	Cae-	4d\	Cae-	4a\	Cae-	4ff#\	Cae-	.	4D\	.	4r	.	4r	.	8D/L	.	8d\L	.	8r	.	8r	.	2.ff#\	.	2.aa\	.	8dd'\L	.
8D\Jyy	.	.	8f#\|	.	8a\|	.	.	.	16aa\L	.	8A\	.	.	.	.	.	.	.	.	.	.	.	.	.	.	16D/L	.	16d\L	.	8F#\L|	.	8A\L|	.	.	.	.	.	8aa'\	.
.	.	.	.	.	.	.	.	.	16aa\JJ	.	.	.	.	.	.	.	.	.	.	.	.	.	.	.	.	16D/JJ	.	16d\JJ	.	.	.	.	.	.	.	.	.	.	.
*	*	*	*	*	*	*	*	*	*	*	*	*	*	*	*	*	*	*	*	*	*	*	*	*	*	*tremolo	*	*tremolo	*	*	*	*	*	*	*	*	*	*	*
8F#\Lyy	.	.	8d\L|	.	8f#\L|	.	4ff# 4a 4d/	.	16ddd\LL	.	8d\	-li	4d\	-li	4a\	-li	4ff#\	-li	.	4r	.	8d/L	.	8dd\L	.	8D/L	.	8d\L	.	8D\|	.	8F#\|	.	.	.	.	.	8ddd'\	.
.	.	.	.	.	.	.	.	.	16ddd\	.	.	.	.	.	.	.	.	.	.	.	.	.	.	.	.	.	.	.	.	.	.	.	.	.	.	.	.	.	.
8D\yy	.	.	8f#\J|	.	8a\J|	.	.	.	16aa\	.	8A\J	.	.	.	.	.	.	.	.	.	.	8d/J	.	8dd\J	.	8D/	.	8d\	.	8F#\J|	.	8A\J|	.	.	.	.	.	8aa'\	.
.	.	.	.	.	.	.	.	.	16aa\JJ	.	.	.	.	.	.	.	.	.	.	.	.	.	.	.	.	.	.	.	.	.	.	.	.	.	.	.	.	.	.
8F#\yy	.	.	4d\	.	4f#\|	.	4ff# 4a 4d/	.	16ff#\LL	.	8F#\L	et	4d\	et	4a\	et	4ff#\	et	.	4r	.	4d/	.	4dd\	.	8D/	.	8d\	.	4D\	.	4F#\	.	.	.	.	.	8ff#'\	.
.	.	.	.	.	.	.	.	.	16ff#\	.	.	.	.	.	.	.	.	.	.	.	.	.	.	.	.	.	.	.	.	.	.	.	.	.	.	.	.	.	.
8D\Jyy	.	.	.	.	.	.	.	.	16aa\	.	8A\J	.	.	.	.	.	.	.	.	.	.	.	.	.	.	8D/J	.	8d\J	.	.	.	.	.	.	.	.	.	8aa'\J	.
.	.	.	.	.	.	.	.	.	16aa\JJ	.	.	.	.	.	.	.	.	.	.	.	.	.	.	.	.	.	.	.	.	.	.	.	.	.	.	.	.	.	.
*	*	*	*	*	*	*	*	*	*	*	*	*	*	*	*	*	*	*	*	*	*	*	*	*	*	*Xtremolo	*	*	*	*	*	*	*	*	*	*	*	*	*
=15	=15	=15	=15	=15	=15	=15	=15	=15	=15	=15	=15	=15	=15	=15	=15	=15	=15	=15	=15	=15	=15	=15	=15	=15	=15	=15	=15	=15	=15	=15	=15	=15	=15	=15	=15	=15	=15	=15	=15
!LO:TX:t=P:problem=mixed beam	!	!	!	!	!	!	!	!	!	!	!	!	!	!	!	!	!	!	!	!	!	!	!	!	!	!	!	!	!	!	!	!	!	!	!	!	!	!	!
*	*	*	*tremolo	*	*	*	*	*	*	*	*2\right	*	*	*	*	*	*	*	*	*	*	*	*	*	*	*	*	*	*	*	*	*	*	*	*	*	*	*	*
*	*	*	*2\right	*	*	*	*	*	*	*	*	*	*	*	*	*	*	*	*	*	*	*	*	*	*	*	*	*	*	*	*	*	*	*	*	*	*	*2\right	*
8A\Lyy	.	.	(16e\LL	.	16a\LL	.	16gg\LL	.	16gg\LL	.	2A\	ter-	2c#\	ter-	2a\	ter-	2ee\	ter-	.	2.AA/	.	4.a/	.	4.ee\	.	2.A/	.	8e\L	.	8r	.	8r	.	2.ee\	.	2.gg\	.	2.ccc#\	.
.	.	.	16g\	.	16cc#\	.	16ff#\	.	16ff#\	.	.	.	.	.	.	.	.	.	.	.	.	.	.	.	.	.	.	.	.	.	.	.	.	.	.	.	.	.	.
8AA/yy	.	.	16e\	.	16a\	.	16ee\	.	16ee\	.	.	.	.	.	.	.	.	.	.	.	.	.	.	.	.	.	.	8e\	.	8E\L|	.	8G\L|	.	.	.	.	.	.	.
.	.	.	16g\	.	16cc#\JJ	.	16ff#\JJ	.	16ff#\JJ	.	.	.	.	.	.	.	.	.	.	.	.	.	.	.	.	.	.	.	.	.	.	.	.	.	.	.	.	.	.
8C#/yy	.	.	16e\	.	16a\LL	.	16gg\LL	.	16gg\LL	.	.	.	.	.	.	.	.	.	.	.	.	.	.	.	.	.	.	8e\	.	8C#\|	.	8E\|	.	.	.	.	.	.	.
.	.	.	16g\	.	16cc#\	.	16ff#\	.	16ff#\	.	.	.	.	.	.	.	.	.	.	.	.	.	.	.	.	.	.	.	.	.	.	.	.	.	.	.	.	.	.
8E/yy	.	.	16e\	.	16a\	.	16ee\	.	16ee\	.	.	.	.	.	.	.	.	.	.	.	.	8a/L	.	8ee\L	.	.	.	8e\	.	8E\J|	.	8G\J|	.	.	.	.	.	.	.
.	.	.	16g\	.	16cc#\JJ	.	16dd\JJ	.	16dd\JJ	.	.	.	.	.	.	.	.	.	.	.	.	.	.	.	.	.	.	.	.	.	.	.	.	.	.	.	.	.	.
8C#/yy	.	.	16e\	.	16a\LL	.	16cc#\LL	.	16cc#\LL	.	4AA/	-ra	4c#\	-ra	4a\	-ra	4ee\	-ra	.	.	.	8a/	.	8ee\	.	.	.	8e\	.	4C#/	.	4E\	.	.	.	.	.	.	.
.	.	.	16g\	.	16cc#\	.	16b\	.	16b\	.	.	.	.	.	.	.	.	.	.	.	.	.	.	.	.	.	.	.	.	.	.	.	.	.	.	.	.	.	.
8AA/Jyy	.	.	16e\	.	16a\	.	16a\	.	16a\	.	.	.	.	.	.	.	.	.	.	.	.	8a/J	.	8ee\J	.	.	.	8e\J	.	.	.	.	.	.	.	.	.	.	.
.	.	.	16g\JJ)	.	16cc#\JJ	.	16g\JJ	.	16g\JJ	.	.	.	.	.	.	.	.	.	.	.	.	.	.	.	.	.	.	.	.	.	.	.	.	.	.	.	.	.	.
*	*	*	*	*	*	*	*	*	*	*	*	*	*	*	*	*	*	*	*	*	*	*	*	*	*	*2\right	*	*Xtremolo	*	*	*	*	*	*	*	*	*	*	*
!	!	!	!	!	!	!	!	!	!	!	!	!	!	!	!LO:LB:g=original	!	!	!	!	!	!	!	!	!	!	!	!	!	!	!	!	!	!	!	!	!	!	!	!
=16	=16	=16	=16	=16	=16	=16	=16	=16	=16	=16	=16	=16	=16	=16	=16	=16	=16	=16	=16	=16	=16	=16	=16	=16	=16	=16	=16	=16	=16	=16	=16	=16	=16	=16	=16	=16	=16	=16	=16
*	*	*	*	*	*	*	*	*	*	*	*	*	*	*	*	*	*	*	*	*2\right	*	*	*	*	*	*	*	*	*	*	*	*	*	*	*	*	*	*	*
!	!	!	!	!	!	!	!	!	!	!	!	!	!	!	!	!	!	!	!	!LO:TX:t=P:problem=2\right&colon; global	!	!	!	!	!	!	!	!	!	!	!	!LO:TX:t=P:problem=t. 16-17 zapisane jako repetycja dwóch poprzednich taktów	!	!	!	!	!	!	!
8D\L	.	5_ 3_	(16f#\LL	.	16a\LL	.	16f#/LL	.	16f#/LL	.	4d\	glo-	4d\	glo-	4a\	glo-	4ff#\	glo-	.	2.D\	.	4.dd\	.	4.ff#\	.	2.d\	.	2.f#\	.	8r	.	8ryy	.	2.dd\	.	2.ff#\	.	2.ddd\	.
.	.	.	16a\	.	16dd\	.	16a/	.	16a/	.	.	.	.	.	.	.	.	.	.	.	.	.	.	.	.	.	.	.	.	.	.	.	.	.	.	.	.	.	.
16F#\L	.	.	16f#\	.	16a\	.	16b/	.	16b/	.	.	.	.	.	.	.	.	.	.	.	.	.	.	.	.	.	.	.	.	8F#\L	.	8A\Lyy	.	.	.	.	.	.	.
16A\JJ	.	.	16a\	.	16dd\JJ	.	16cc#/JJ	.	16cc#/JJ	.	.	.	.	.	.	.	.	.	.	.	.	.	.	.	.	.	.	.	.	.	.	.	.	.	.	.	.	.	.
8d\L	.	X X	16f#\	.	16a\LL	.	16dd\LL	.	16dd\LL	.	4D/	-ri-	4d\	-ri-	4a\	-ri-	4ff#\	-ri-	.	.	.	.	.	.	.	.	.	.	.	8D\	.	8F#\yy	.	.	.	.	.	.	.
.	.	.	16a\	.	16dd\	.	16ee\	.	16ee\	.	.	.	.	.	.	.	.	.	.	.	.	.	.	.	.	.	.	.	.	.	.	.	.	.	.	.	.	.	.
8A\	.	.	16f#\	.	16a\	.	16ff#\	.	16ff#\	.	.	.	.	.	.	.	.	.	.	.	.	8dd\L	.	8ff#\L	.	.	.	.	.	8F#\J	.	8A\Jyy	.	.	.	.	.	.	.
.	.	.	16a\	.	16dd\JJ	.	16gg\JJ	.	16gg\JJ	.	.	.	.	.	.	.	.	.	.	.	.	.	.	.	.	.	.	.	.	.	.	.	.	.	.	.	.	.	.
!	!	!	!	!	!LO:LB:g=original	!	!	!	!	!	!	!	!	!	!	!	!	!	!	!	!	!	!	!	!	!	!	!	!	!	!	!	!	!	!	!	!	!	!
8F#\	.	.	16f#\	.	16a\LL	.	16aa\LL	.	16aa\LL	.	4F#/	-a	4d\	-a	4a\	-a	4ff#\	-a	.	.	.	8dd\	.	8ff#\	.	.	.	.	.	4D\	.	4F#\yy	.	.	.	.	.	.	.
.	.	.	16a\	.	16dd\	.	16ff#\	.	16ff#\	.	.	.	.	.	.	.	.	.	.	.	.	.	.	.	.	.	.	.	.	.	.	.	.	.	.	.	.	.	.
8D\J	.	.	16f#\	.	16a\	.	16ee\	.	16ee\	.	.	.	.	.	.	.	.	.	.	.	.	8dd\J	.	8ff#\J	.	.	.	.	.	.	.	.	.	.	.	.	.	.	.
.	.	.	16a\JJ)	.	16dd\JJ	.	16dd\JJ	.	16dd\JJ	.	.	.	.	.	.	.	.	.	.	.	.	.	.	.	.	.	.	.	.	.	.	.	.	.	.	.	.	.	.
=17	=17	=17	=17	=17	=17	=17	=17	=17	=17	=17	=17	=17	=17	=17	=17	=17	=17	=17	=17	=17	=17	=17	=17	=17	=17	=17	=17	=17	=17	=17	=17	=17	=17	=17	=17	=17	=17	=17	=17
!LO:TX:t=P:problem=mixed beam	!	!	!	!	!	!	!	!	!	!	!	!	!	!	!	!	!	!	!	!	!	!	!	!	!	!	!	!	!	!	!	!	!	!	!	!	!	!	!
8A\L	.	7_ 5_	(16e\LL	.	16a\LL	.	16gg\LL	.	16gg\LL	.	2.A\	tu-	2.c#\	tu-	2.a\	tu-	2.ee\	tu-	.	2.AA/	.	4.a/	.	4.ee\	.	2.A/	.	2.e\	.	8r	.	8ryy	.	2.ee\	.	2.gg\	.	2.ccc#\	.
.	.	.	16g\	.	16cc#\	.	16ff#\	.	16ff#\	.	.	.	.	.	.	.	.	.	.	.	.	.	.	.	.	.	.	.	.	.	.	.	.	.	.	.	.	.	.
8AA/	.	.	16e\	.	16a\	.	16ee\	.	16ee\	.	.	.	.	.	.	.	.	.	.	.	.	.	.	.	.	.	.	.	.	8E\L	.	8G\Lyy	.	.	.	.	.	.	.
.	.	.	16g\	.	16cc#\JJ	.	16ff#\JJ	.	16ff#\JJ	.	.	.	.	.	.	.	.	.	.	.	.	.	.	.	.	.	.	.	.	.	.	.	.	.	.	.	.	.	.
*	*	*	*	*	*tremolo	*	*	*	*	*	*	*	*	*	*	*	*	*	*	*	*	*	*	*	*	*	*	*	*	*	*	*	*	*	*	*	*	*	*
*	*	*	*	*	*2\right	*	*	*	*	*	*	*	*	*	*	*	*	*	*	*	*	*	*	*	*	*	*	*	*	*	*	*	*	*	*	*	*	*	*
8C#/	.	.	16e\	.	16a\LL	.	16gg\LL	.	16gg\LL	.	.	.	.	.	.	.	.	.	.	.	.	.	.	.	.	.	.	.	.	8C#\	.	8E\yy	.	.	.	.	.	.	.
.	.	.	16g\	.	16cc#\	.	16ff#\	.	16ff#\	.	.	.	.	.	.	.	.	.	.	.	.	.	.	.	.	.	.	.	.	.	.	.	.	.	.	.	.	.	.
8E/J	.	.	16e\	.	16a\	.	16ee\	.	16ee\	.	.	.	.	.	.	.	.	.	.	.	.	8a/L	.	8ee\L	.	.	.	.	.	8E\J	.	8G\Jyy	.	.	.	.	.	.	.
.	.	X X	16g\	.	16cc#\	.	16dd\JJ	.	16dd\JJ	.	.	.	.	.	.	.	.	.	.	.	.	.	.	.	.	.	.	.	.	.	.	.	.	.	.	.	.	.	.
!LO:TX:t=P:problem=mixed beam	!	!	!	!	!	!	!	!	!	!	!	!	!	!	!	!	!	!	!	!	!	!	!	!	!	!	!	!	!	!	!	!	!	!	!	!	!	!	!
!	!	!	!	!	!	!	!	!	!LO:LB:g=original	!	!	!	!	!	!	!	!	!	!	!	!	!	!	!	!	!	!	!	!	!	!	!	!	!	!	!	!	!	!
8A\L	.	.	16e\	.	16a\	.	16cc#\LL	.	16cc#\LL	.	.	.	.	.	.	.	.	.	.	.	.	8a/	.	8ee\	.	.	.	.	.	4C#/	.	4E\yy	.	.	.	.	.	.	.
.	.	.	16g\	.	16cc#\	.	16b\	.	16b\	.	.	.	.	.	.	.	.	.	.	.	.	.	.	.	.	.	.	.	.	.	.	.	.	.	.	.	.	.	.
8AA/J	.	.	16e\	.	16a\	.	16a\	.	16a\	.	.	.	.	.	.	.	.	.	.	.	.	8a/J	.	8ee\J	.	.	.	.	.	.	.	.	.	.	.	.	.	.	.
.	.	.	16g\JJ)	.	16cc#\JJ	.	16g\JJ	.	16g\JJ	.	.	.	.	.	.	.	.	.	.	.	.	.	.	.	.	.	.	.	.	.	.	.	.	.	.	.	.	.	.
*	*	*	*Xtremolo	*	*Xtremolo	*	*	*	*	*	*	*	*	*	*	*	*	*	*	*	*	*	*	*	*	*	*	*	*	*	*	*	*	*	*	*	*	*	*
!	!	!	!	!	!	!	!	!	!	!	!	!	!	!	!	!	!	!	!	!	!	!	!	!	!	!	!	!	!	!LO:LB:g=original	!	!	!	!	!	!	!	!	!
!	!	!	!	!	!	!	!	!	!	!	!	!	!	!	!	!	!	!	!	!LO:LB:g=original	!	!	!	!	!	!	!	!	!	!	!	!	!	!	!	!	!	!	!
=18	=18	=18	=18	=18	=18	=18	=18	=18	=18	=18	=18	=18	=18	=18	=18	=18	=18	=18	=18	=18	=18	=18	=18	=18	=18	=18	=18	=18	=18	=18	=18	=18	=18	=18	=18	=18	=18	=18	=18
!	!	!	!	!	!	!	!	!	!	!	!	!	!	!	!	!	!	!	!	!	!	!	!	!	!	!	!	!LO:TX:a:t=c	!	!	!	!	!	!	!	!	!	!	!
8.D\L|	.	.	8.d\L	.	8.dd\L	.	(16f#/LL	.	(16f#/LL	.	4D/	-a	4d\	-a	4a\	-a	4ff#\	-a	.	4D\	.	4f#/	.	4dd\	.	4F#/	.	4d\	.	8.D\L	.	8.F#\L	.	4dd\	.	4ff#\	.	16ddd\LL	.
.	.	.	.	.	.	.	16e/)	.	16e/)	.	.	.	.	.	.	.	.	.	.	.	.	.	.	.	.	.	.	.	.	.	.	.	.	.	.	.	.	16aa\	.
.	.	.	.	.	.	.	16f#/'	.	16f#'/	.	.	.	.	.	.	.	.	.	.	.	.	.	.	.	.	.	.	.	.	.	.	.	.	.	.	.	.	16ff#\	.
16F#\K|	.	.	16f#\Jk	.	16f#\Jk	.	16d/JJ'	.	16d'/JJ	.	.	.	.	.	.	.	.	.	.	.	.	.	.	.	.	.	.	.	.	16F#\K	.	16D\K	.	.	.	.	.	16dd\JJ	.
8.E\|	.	.	8.e\L	.	8.e\L	.	(16g/LL	.	(16g/LL	.	4r	.	4r	.	4r	.	4r	.	.	4r	.	4r	.	4r	.	4r	.	4r	.	8.E\	.	8.G\	.	4r	.	4r	.	16gg\LL	.
.	.	.	.	.	.	.	16f#/)	.	16f#/)	.	.	.	.	.	.	.	.	.	.	.	.	.	.	.	.	.	.	.	.	.	.	.	.	.	.	.	.	16ff#\	.
.	.	.	.	.	.	.	16g/'	.	16g'/	.	.	.	.	.	.	.	.	.	.	.	.	.	.	.	.	.	.	.	.	.	.	.	.	.	.	.	.	16gg\	.
16G\K|	.	.	16g\Jk	.	16g\Jk	.	16e/JJ'	.	16e'/JJ	.	.	.	.	.	.	.	.	.	.	.	.	.	.	.	.	.	.	.	.	16G\K	.	16E\Jk	.	.	.	.	.	16ee\JJ	.
!	!	!	!LO:LB:g=original	!	!	!	!	!	!	!	!	!	!	!	!	!	!	!	!	!	!	!	!	!	!	!	!	!	!	!	!	!	!	!	!	!	!	!	!
!	!	!	!	!	!	!	!	!	!	!	!	!	!	!	!	!	!	!	!	!	!	!	!	!	!	!	!	!	!	!	!	!LO:LB:g=original	!	!	!	!	!	!	!
8.F#\|	.	.	8.f#\L	.	8.f#\L	.	(16a/LL	.	(16a/LL	.	4r	.	4r	.	4r	.	4r	.	.	4r	.	4r	.	4r	.	4r	.	4r	.	8.F#\	.	8.A\L	.	4r	.	4r	.	16aa\LL	.
.	.	.	.	.	.	.	16g/)	.	16g/)	.	.	.	.	.	.	.	.	.	.	.	.	.	.	.	.	.	.	.	.	.	.	.	.	.	.	.	.	16gg\	.
.	.	.	.	.	.	.	16a/'	.	16a'/	.	.	.	.	.	.	.	.	.	.	.	.	.	.	.	.	.	.	.	.	.	.	.	.	.	.	.	.	16aa\	.
16A\Jk|	.	.	16a\Jk	.	16a\Jk	.	16f#/JJ'	.	16f#'/JJ	.	.	.	.	.	.	.	.	.	.	.	.	.	.	.	.	.	.	.	.	16A\Jk	.	16F#\Jk	.	.	.	.	.	16ff#\JJ	.
=19	=19	=19	=19	=19	=19	=19	=19	=19	=19	=19	=19	=19	=19	=19	=19	=19	=19	=19	=19	=19	=19	=19	=19	=19	=19	=19	=19	=19	=19	=19	=19	=19	=19	=19	=19	=19	=19	=19	=19
!	!	!	!	!	!	!	!	!	!	!	!	!	!	!	!	!	!	!	!	!	!	!LO:TX:a:t=2	!	!	!	!	!	!	!	!	!	!LO:TX:t=P:problem=mixed beam	!	!	!	!	!	!	!
8.G\L	.	.	8.g\L	.	8.g\L	.	16b\LL	.	(16b\LL	.	4G\	glo-	4d\	glo-	4g\	glo-	4b\	glo-	.	2.r	.	1.r	.	2.r	.	4r	.	4r	.	8.G\L	.	8.B\L	.	4r	.	4r	.	16bb\LL	.
.	.	.	.	.	.	.	16a\	.	16a\)	.	.	.	.	.	.	.	.	.	.	.	.	.	.	.	.	.	.	.	.	.	.	.	.	.	.	.	.	16aa\	.
.	.	.	.	.	.	.	16b\	.	16b'\	.	.	.	.	.	.	.	.	.	.	.	.	.	.	.	.	.	.	.	.	.	.	.	.	.	.	.	.	16bb\	.
16E\K	.	.	16e\Jk	.	16b\Jk	.	16g\JJ	.	16g'\JJ	.	.	.	.	.	.	.	.	.	.	.	.	.	.	.	.	.	.	.	.	16B\K	.	16G\K	.	.	.	.	.	16gg\JJ	.
8.A\	.	.	8.a\L	.	16a\LL	.	16cc#\LL	.	(16cc#\LL	.	4E\	-ri-	4A/	-ri-	4e\	-ri-	4cc#\	-ri-	.	.	.	.	.	.	.	4r	.	4r	.	8.A\	.	8.c#\	.	4r	.	4r	.	16ccc#\LL	.
.	.	.	.	.	16a\	.	16b\	.	16b\)	.	.	.	.	.	.	.	.	.	.	.	.	.	.	.	.	.	.	.	.	.	.	.	.	.	.	.	.	16bb\	.
.	.	.	.	.	16g\	.	16cc#\	.	16cc#'\	.	.	.	.	.	.	.	.	.	.	.	.	.	.	.	.	.	.	.	.	.	.	.	.	.	.	.	.	16ccc#\	.
16G\K	.	.	16g\Jk	.	16g\JJ	.	16a\JJ	.	16a'\JJ	.	.	.	.	.	.	.	.	.	.	.	.	.	.	.	.	.	.	.	.	16G\K	.	16A\K	.	.	.	.	.	16aa\JJ	.
8F#\	.	X 6	8.f#\L	.	16f#\LL	.	16f#\LL	.	(16dd\LL	.	4D\	-a	4A/	-a	4f#\	-a	4dd\	-a	.	.	.	.	.	.	.	4D/	.	4d\	.	8.F#\	.	8.d\	.	4ff#\	.	4dd\	.	4ddd\	.
.	.	.	.	.	16f#\	.	16a\	.	16ff#\)	.	.	.	.	.	.	.	.	.	.	.	.	.	.	.	.	.	.	.	.	.	.	.	.	.	.	.	.	.	.
8D\J	.	.	.	.	16a\	.	16dd\	.	16aa'\	.	.	.	.	.	.	.	.	.	.	.	.	.	.	.	.	.	.	.	.	.	.	.	.	.	.	.	.	.	.
.	.	.	16d\Jk	.	16a\JJ	.	16ff#\JJ	.	16ddd'\JJ	.	.	.	.	.	.	.	.	.	.	.	.	.	.	.	.	.	.	.	.	16D\Jk	.	16D/Jk	.	.	.	.	.	.	.
!	!	!	!	!	!	!	!	!	!	!	!	!	!	!	!	!	!LO:LB:g=original	!	!	!	!	!	!	!	!	!	!	!	!	!	!	!	!	!	!	!	!	!	!
!	!	!	!	!	!	!	!LO:LB:g=original	!	!	!	!LO:LB:g=original	!	!	!	!	!	!	!	!	!	!	!	!	!	!	!	!	!	!	!	!	!	!	!	!	!	!	!LO:LB:g=original	!
=20	=20	=20	=20	=20	=20	=20	=20	=20	=20	=20	=20	=20	=20	=20	=20	=20	=20	=20	=20	=20	=20	=20	=20	=20	=20	=20	=20	=20	=20	=20	=20	=20	=20	=20	=20	=20	=20	=20	=20
!LO:TX:t=P:problem=mixed beam	!	!	!	!	!	!	!	!	!	!	!	!	!	!	!	!	!	!	!	!	!	!	!	!	!	!	!	!	!	!	!	!	!	!	!	!	!	!	!
*	*	*	*	*	*tremolo	*	*	*	*	*	*	*	*	*	*	*	*	*	*	*	*	*	*	*	*	*	*	*	*	*	*	*	*	*	*	*	*	*	*
!	!	!	!	!	!	!	!	!	!	!	!	!	!	!	!	!	!	!	!	!	!	!	!	!	!	!	!	!	!	!LO:TX:t=P:problem=mixed beam	!	!LO:TX:t=P:problem=mixed beam	!	!	!	!	!	!	!
8G\L	.	X 6	8.g\L	.	16b\LL	.	(16aa\LL	.	(16ccc#\LL	.	4G\	tu-	4r	.	8b\L	tu-	(16aa\LL	tu-	.	4r	.	.	.	4r	.	4r	.	4r	.	8.G\L	.	8.G\L	.	4r	.	4r	.	16ccc#\LL	.
.	.	.	.	.	16b\	.	16gg\	.	16bb\	.	.	.	.	.	.	.	16gg\	.	.	.	.	.	.	.	.	.	.	.	.	.	.	.	.	.	.	.	.	16bb\	.
8B\	.	.	.	.	16b\	.	16ff#\	.	16aa\	.	.	.	.	.	16a\L	.	16ff#\	.	.	.	.	.	.	.	.	.	.	.	.	.	.	.	.	.	.	.	.	16aa\	.
.	.	.	16e\Jk	.	16b\JJ	.	16ee\JJ)	.	16gg\JJ)	.	.	.	.	.	16g\JJ	.	16ee\JJ	.	.	.	.	.	.	.	.	.	.	.	.	16E\K	.	16E\K	.	.	.	.	.	16gg\JJ	.
*	*	*	*tremolo	*	*	*	*	*	*	*	*	*	*	*	*	*	*	*	*	*	*	*	*	*	*	*	*	*	*	*	*	*	*	*	*	*	*	*	*
.	.	.	.	.	.	.	.	.	.	.	.	.	.	.	.	.	.	.	.	.	.	.	.	.	.	.	.	.	.	.	.	.	.	.	.	.	.	8qff#/	.
8A\	.	X 4	16f#\LL	.	16a\LL	.	(16dd\LL	.	(16ff#\LL	.	4A\	.	4A/	tu-	4f#\	.	4dd\)	.	.	4D\	.	.	.	4ff#\	.	4d\	.	4f#\	.	8A\	.	8A\	.	4dd\	.	4ff#\	.	4fff#\	.
.	.	.	16f#\	.	16a\	.	16ff#\)	.	16ddd\)	.	.	.	.	.	.	.	.	.	.	.	.	.	.	.	.	.	.	.	.	.	.	.	.	.	.	.	.	.	.
8A\	.	X 3	16f#\	.	16a\	.	16ff#\'	.	16ddd'\	.	.	.	.	.	.	.	.	.	.	.	.	.	.	.	.	.	.	.	.	8A\	.	8A\	.	.	.	.	.	.	.
.	.	.	16f#\JJ	.	16a\	.	16ff#\JJ'	.	16ddd'\JJ	.	.	.	.	.	.	.	.	.	.	.	.	.	.	.	.	.	.	.	.	.	.	.	.	.	.	.	.	.	.
!	!	!	!	!	!	!	!	!	!	!	!	!	!	!	!	!	!	!	!	!	!	!	!	!	!	!	!	!	!	!	!	!	!	!	!	!LO:TX:t=P:problem=niezidentyfikowany symbol pod pieciolinią [prawdopodobnie HB - skrót od Hautbois]	!	!	!
!	!	!	!	!	!	!	!	!	!	!	!	!	!	!	!	!	!	!	!	!	!	!	!	!	!	!	!	!LO:TX:b:i:t=Solo	!	!	!	!	!	!	!	!LO:TX:b:i:t=HB	!	!	!
8AA/	.	.	16g\LL	.	16a\	.	(16cc#\LL	.	(16ee\LL	.	4AA/	-a	4A/	-a	4e\	-a	4cc#\	-a	.	4AA/	.	.	.	4ee\	.	4A\	.	4e\	.	8AA/	.	8AA/	.	4cc#\	.	4ee\	.	4eee\	.
.	.	.	16g\	.	16a\	.	16ee\)	.	16ccc#\)	.	.	.	.	.	.	.	.	.	.	.	.	.	.	.	.	.	.	.	.	.	.	.	.	.	.	.	.	.	.
8AA/J	.	.	16g\	.	16a\	.	16ee\'	.	16ccc#'\	.	.	.	.	.	.	.	.	.	.	.	.	.	.	.	.	.	.	.	.	8AA/J	.	8AA/J	.	.	.	.	.	.	.
.	.	.	16g\JJ	.	16a\JJ	.	16ee\JJ'	.	16ccc#'\JJ	.	.	.	.	.	.	.	.	.	.	.	.	.	.	.	.	.	.	.	.	.	.	.	.	.	.	.	.	.	.
*	*	*	*Xtremolo	*	*Xtremolo	*	*	*	*	*	*	*	*	*	*	*	*	*	*	*	*	*	*	*	*	*	*	*	*	*	*	*	*	*	*	*	*	*	*
=21	=21	=21	=21	=21	=21	=21	=21	=21	=21	=21	=21	=21	=21	=21	=21	=21	=21	=21	=21	=21	=21	=21	=21	=21	=21	=21	=21	=21	=21	=21	=21	=21	=21	=21	=21	=21	=21	=21	=21
*	*	*	*	*	*^	*	*	*	*^	*	*	*	*	*	*	*	*	*	*	*	*	*	*	*	*	*	*	*	*	*	*	*	*	*	*	*	*	*	*
*	*	*	*	*	*cue	*	*	*	*	*cue	*	*	*	*	*	*	*	*	*	*	*	*	*	*	*	*	*	*	*	*	*	*	*	*	*	*	*	*	*	*	*
!LO:TX:a:t=5	!	!	!LO:TX:a:t=5	!	!LO:TX:b:t=1	!	!	!LO:TX:a:t=5	!	!LO:TX:a:i:t=oboi	!	!	!LO:TX:a:t=5.	!	!	!	!LO:TX:a:t=5.	!	!LO:TX:a:t=5.	!	!	!	!	!LO:TX:a:i:t=Solo	!	!LO:TX:b:i:t=Solo	!	!	!	!	!	!LO:TX:a:t=5.	!	!LO:TX:a:t=5.	!	!LO:TX:a:i:t=Solo	!	!LO:TX:b:t=Solo	!	!LO:TX:a:t=5	!
0.r	.	.	0.r	.	8a/L	2.r	.	0.r	.	8ee/L	2.r	.	0.r	.	0.r	.	0.r	.	0.r	.	.	2.AA/	.	8.a/L	.	8.ee'\L	.	4A/	.	4A/	.	0.r	.	0.r	.	8.a/L	p	8.ee\L|	.	0.r	.
.	.	.	.	.	16a/L	.	.	.	.	16ee/L	.	.	.	.	.	.	.	.	.	.	.	.	.	.	.	.	.	.	.	.	.	.	.	.	.	.	.	.	.	.	.
.	.	.	.	.	16a/JJ	.	.	.	.	16ee/JJ	.	.	.	.	.	.	.	.	.	.	.	.	.	16a/Jk	.	16ee'\Jk	.	.	.	.	.	.	.	.	.	16a/Jk	.	16ee\Jk|	.	.	.
!	!	!	!	!	!	!	!	!	!	!	!	!	!	!	!	!	!	!	!	!	!	!	!	!	!	!	!	!	!	!	!	!	!	!	!	!LO:TX:t=P:problem=niezidentyfikowany symbol nad pieciolinią [prawdopodobnie HB - skrót od Hautbois]	!	!	!	!	!
!	!	!	!	!	!	!	!	!	!	!	!	!	!	!	!	!	!	!	!	!	!	!	!	!	!	!	!	!	!	!	!	!	!	!	!	!LO:TX:a:i:t=HB.	!	!LO:TX:b:i:t=dolce	!	!	!
.	.	.	.	.	8a/L	.	.	.	.	8ee/L	.	.	.	.	.	.	.	.	.	.	.	.	.	8a'/L	.	8ee'\L	.	4AA/	.	4AA/	.	.	.	.	.	8a/L|	.	8ee\L|	.	.	.
.	.	.	.	.	8a/	.	.	.	.	8ee/	.	.	.	.	.	.	.	.	.	.	.	.	.	8a'/	.	8ee'\	.	.	.	.	.	.	.	.	.	8a/|	.	8ee\|	.	.	.
.	.	.	.	.	8a/	.	.	.	.	8ee/	.	.	.	.	.	.	.	.	.	.	.	.	.	8a'/	.	8ee'\	.	4r	.	4r	.	.	.	.	.	8a/|	.	8ee\|	.	.	.
.	.	.	.	.	8a/J	.	.	.	.	8ee/J	.	.	.	.	.	.	.	.	.	.	.	.	.	8a'/J	.	8ee'\J	.	.	.	.	.	.	.	.	.	8a/J|	.	8ee\J|	.	.	.
=22	=22	=22	=22	=22	=22	=22	=22	=22	=22	=22	=22	=22	=22	=22	=22	=22	=22	=22	=22	=22	=22	=22	=22	=22	=22	=22	=22	=22	=22	=22	=22	=22	=22	=22	=22	=22	=22	=22	=22	=22	=22
!	!	!	!	!	!LO:TX:b:t=2	!	!	!	!	!	!	!	!	!	!	!	!	!	!	!	!	!LO:TX:a:i:t=Solo	!	!	!	!	!	!LO:TX:a:i:t=Solo	!	!	!	!	!	!	!	!	!	!	!	!	!
.	.	.	.	.	8dd/L	2.r	.	.	.	8ff#'</L	2.r	.	.	.	.	.	.	.	.	.	.	8D/L	.	8dd/L	.	8ff#'\L	.	4d\	.	4d\	.	.	.	.	.	8dd/L|	.	8ff#\L|	.	.	.
.	.	.	.	.	8a/	.	.	.	.	8ee'</	.	.	.	.	.	.	.	.	.	.	.	8AA/	.	8a/	.	8ee'\	.	.	.	.	.	.	.	.	.	8a/	.	8ee\|	.	.	.
.	.	.	.	.	8f#/	.	.	.	.	8dd'</	.	.	.	.	.	.	.	.	.	.	.	8D/	.	8f#/	.	8dd'\	.	4D/	.	4D/	.	.	.	.	.	8f#/|	.	8dd\|	.	.	.
.	.	.	.	.	8a/	.	.	.	.	8ee'</	.	.	.	.	.	.	.	.	.	.	.	8AA/	.	8a/	.	8ee'\	.	.	.	.	.	.	.	.	.	8a/|	.	8ee\|	.	.	.
.	.	.	.	.	8dd/	.	.	.	.	8ff#'</	.	.	.	.	.	.	.	.	.	.	.	8D/	.	8dd/	.	8ff#'\	.	4F#/	.	4F#/	.	.	.	.	.	8dd/|	.	8ff#\|	.	.	.
.	.	.	.	.	8f#/J	.	.	.	.	8dd'</J	.	.	.	.	.	.	.	.	.	.	.	8D/J	.	8f#/J	.	8dd'\J	.	.	.	.	.	.	.	.	.	8f#/J|	.	8dd\J|	.	.	.
=23	=23	=23	=23	=23	=23	=23	=23	=23	=23	=23	=23	=23	=23	=23	=23	=23	=23	=23	=23	=23	=23	=23	=23	=23	=23	=23	=23	=23	=23	=23	=23	=23	=23	=23	=23	=23	=23	=23	=23	=23	=23
!	!	!	!	!	!LO:TX:b:t=3	!	!	!	!	!	!	!	!	!	!	!	!	!	!	!	!	!	!	!	!	!	!	!	!	!	!	!	!	!	!	!	!	!	!	!	!
.	.	.	.	.	8a/L	2.r	.	.	.	8ee/L	2.r	.	.	.	.	.	.	.	.	.	.	2.AA/	.	8.a/L	.	8.ee\L	.	4A/	.	4A/	.	.	.	.	.	8.a/L	.	8.ee\L|	.	.	.
.	.	.	.	.	16a/L	.	.	.	.	16ee/L	.	.	.	.	.	.	.	.	.	.	.	.	.	.	.	.	.	.	.	.	.	.	.	.	.	.	.	.	.	.	.
.	.	.	.	.	16a/JJ	.	.	.	.	16ee/JJ	.	.	.	.	.	.	.	.	.	.	.	.	.	16a/Jk	.	16ee\Jk	.	.	.	.	.	.	.	.	.	16a/Jk	.	16ee\Jk|	.	.	.
*	*	*	*	*	*tremolo	*	*	*	*	*	*	*	*	*	*	*	*	*	*	*	*	*	*	*tremolo	*	*tremolo	*	*	*	*	*	*	*	*	*	*	*	*	*	*	*
*	*	*	*	*	*	*	*	*	*	*	*	*	*	*	*	*	*	*	*	*	*	*	*	*	*	*	*	*	*	*	*	*	*	*	*	*	*	*tremolo	*	*	*
!	!	!	!	!	!	!	!	!	!	!	!	!	!	!	!	!	!	!	!	!	!	!	!	!	!	!	!	!	!	!	!	!	!	!	!	!	!	!LO:TX:t=P:problem=kreski nad tremolo [ilość nut / staccatissimo]	!	!	!
.	.	.	.	.	8a/L	.	.	.	.	8ee/L	.	.	.	.	.	.	.	.	.	.	.	.	.	8a/L	.	8ee\L'	.	4AA/	.	4AA/	.	.	.	.	.	8a/L|	.	8ee\L|	.	.	.
.	.	.	.	.	8a/	.	.	.	.	8ee/	.	.	.	.	.	.	.	.	.	.	.	.	.	8a/	.	8ee\'	.	.	.	.	.	.	.	.	.	8a/|	.	8ee\	.	.	.
.	.	.	.	.	8a/	.	.	.	.	8ee/	.	.	.	.	.	.	.	.	.	.	.	.	.	8a/	.	8ee\'	.	4r	.	4r	.	.	.	.	.	8a/|	.	8ee\	.	.	.
.	.	.	.	.	8a/J	.	.	.	.	8ee/J	.	.	.	.	.	.	.	.	.	.	.	.	.	8a/J	.	8ee\J'	.	.	.	.	.	.	.	.	.	8a/J|	.	8ee\J	.	.	.
*	*	*	*	*	*v	*v	*	*	*	*v	*v	*	*	*	*	*	*	*	*	*	*	*	*	*	*	*	*	*	*	*	*	*	*	*	*	*	*	*	*	*	*
*	*	*	*	*	*Xtremolo	*	*	*	*	*	*	*	*	*	*	*	*	*	*	*	*	*Xtremolo	*	*Xtremolo	*	*	*	*	*	*	*	*	*	*	*	*Xtremolo	*	*	*
=24	=24	=24	=24	=24	=24	=24	=24	=24	=24	=24	=24	=24	=24	=24	=24	=24	=24	=24	=24	=24	=24	=24	=24	=24	=24	=24	=24	=24	=24	=24	=24	=24	=24	=24	=24	=24	=24	=24	=24
*	*	*	*	*	*^	*	*	*	*^	*	*	*	*	*	*	*	*	*	*	*	*	*	*	*	*	*	*	*	*	*	*	*	*	*	*	*	*	*	*
!	!	!	!	!	!LO:TX:b:t=4	!	!	!	!	!	!	!	!	!	!	!	!	!	!	!	!	!	!	!	!	!	!	!	!	!	!	!	!	!	!	!	!	!	!	!	!
.	.	.	.	.	8dd/L	2.r	.	.	.	8ff#/L	2.r	.	.	.	.	.	.	.	.	.	.	8D/L	.	8dd/L	.	8ff#\L	.	4D/	.	4D/	.	.	.	.	.	8dd/L|	.	8ff#\L|	.	.	.
.	.	.	.	.	8a/	.	.	.	.	8ee/	.	.	.	.	.	.	.	.	.	.	.	8AA/	.	8a/	.	8ee\	.	.	.	.	.	.	.	.	.	8a/|	.	8ee\|	.	.	.
.	.	.	.	.	8f#/	.	.	.	.	8dd/	.	.	.	.	.	.	.	.	.	.	.	8D/	.	8f#/	.	8dd\	.	4F#/	.	4F#/	.	.	.	.	.	8f#/|	.	8dd\|	.	.	.
.	.	.	.	.	8a/	.	.	.	.	8ee/	.	.	.	.	.	.	.	.	.	.	.	8AA/	.	8a/	.	8ee\	.	.	.	.	.	.	.	.	.	8a/|	.	8ee\|	.	.	.
.	.	.	.	.	8dd/	.	.	.	.	8ff#/	.	.	.	.	.	.	.	.	.	.	.	8D/	.	8dd/	.	8ff#'\	.	4D/	.	4D/	.	.	.	.	.	8dd/|	.	8ff#\|	.	.	.
.	.	.	.	.	8f#/J	.	.	.	.	8dd/J	.	.	.	.	.	.	.	.	.	.	.	8D/J	.	8f#/J	.	8dd\J	.	.	.	.	.	.	.	.	.	8f#/J|	.	8dd\J|	.	.	.
!	!	!	!	!	!	!	!	!	!	!LO:PB:g=original	!	!	!	!	!	!	!	!	!	!	!	!	!	!	!	!	!	!	!	!	!	!	!	!	!	!	!	!	!	!	!
!	!	!	!	!	!	!	!	!	!	!	!	!	!	!	!	!	!	!	!	!	!	!	!	!	!	!	!	!	!	!	!	!	!	!	!	!LO:LB:g=original	!	!	!	!	!
=25	=25	=25	=25	=25	=25	=25	=25	=25	=25	=25	=25	=25	=25	=25	=25	=25	=25	=25	=25	=25	=25	=25	=25	=25	=25	=25	=25	=25	=25	=25	=25	=25	=25	=25	=25	=25	=25	=25	=25	=25	=25
!	!	!	!	!	!LO:TX:b:t=5	!	!	!	!	!	!	!	!	!	!	!	!	!	!	!	!	!	!	!	!	!	!	!	!	!	!	!LO:TX:b:i:t=Volti Subito	!	!	!	!	!	!	!	!	!
2.r	.	.	2.r	.	8a/L	2.r	.	2.r	.	8ee/L	2.r	.	2.r	.	2.r	.	2.r	.	2.r	.	.	2.AA/	.	8a/L	.	8ee\L	.	4A/	.	4A/	.	2.r	.	2.r	.	8.a/L	.	8.ee\L	.	2.r	.
.	.	.	.	.	16a/L	.	.	.	.	16ee/L	.	.	.	.	.	.	.	.	.	.	.	.	.	16a/L	.	16ee\L	.	.	.	.	.	.	.	.	.	.	.	.	.	.	.
.	.	.	.	.	16a/JJ	.	.	.	.	16ee/JJ	.	.	.	.	.	.	.	.	.	.	.	.	.	16a/JJ	.	16ee\JJ	.	.	.	.	.	.	.	.	.	16a/Jk	.	16ee\Jk	.	.	.
*	*	*	*	*	*	*	*	*	*	*	*	*	*	*	*	*	*	*	*	*	*	*	*	*	*	*tremolo	*	*	*	*	*	*	*	*	*	*	*	*	*	*	*
!	!	!	!	!	!	!	!	!	!	!	!	!	!	!	!	!	!	!	!	!	!	!	!	!	!	!	!	!	!	!	!	!	!	!	!	!LO:TX:t=P:problem=kreski pod tremolo [ilość nut / staccatissimo]	!	!	!	!	!
*	*	*	*	*	*	*	*	*	*	*	*	*	*	*	*	*	*	*	*	*	*	*	*	*	*	*	*	*	*	*	*	*	*	*	*	*tremolo	*	*tremolo	*	*	*
.	.	.	.	.	8a/L	.	.	.	.	8ee/L	.	.	.	.	.	.	.	.	.	.	.	.	.	8a/L	.	8ee\L	.	4r	.	4r	.	.	.	.	.	8a/L|	.	8ee\L	.	.	.
.	.	.	.	.	8a/	.	.	.	.	8ee/	.	.	.	.	.	.	.	.	.	.	.	.	.	8a/	.	8ee\	.	.	.	.	.	.	.	.	.	8a/|	.	8ee\	.	.	.
.	.	.	.	.	8a/	.	.	.	.	8ee/	.	.	.	.	.	.	.	.	.	.	.	.	.	8a/	.	8ee\	.	4A/	.	4A/	.	.	.	.	.	8a/|	.	8ee\	.	.	.
.	.	.	.	.	8a/J	.	.	.	.	8ee/J	.	.	.	.	.	.	.	.	.	.	.	.	.	8a/J	.	8ee\J	.	.	.	.	.	.	.	.	.	8a/J|	.	8ee\J	.	.	.
*	*	*	*	*	*Xcue	*	*	*	*	*Xcue	*	*	*	*	*	*	*	*	*	*	*	*	*	*	*	*	*	*	*	*	*	*	*	*	*	*	*	*	*	*	*
*	*	*	*	*	*v	*v	*	*	*	*v	*v	*	*	*	*	*	*	*	*	*	*	*	*	*	*	*	*	*	*	*	*	*	*	*	*	*	*	*	*	*	*
*	*	*	*	*	*	*	*	*	*	*	*	*	*	*	*	*	*	*	*	*	*	*	*	*Xtremolo	*	*	*	*	*	*	*	*	*	*Xtremolo	*	*Xtremolo	*	*	*
!	!	!	!	!	!	!	!	!	!	!	!	!	!	!	!	!	!	!	!	!	!	!	!	!	!	!	!	!	!	!LO:PB:g=original	!	!	!	!	!	!	!	!	!
!LO:LB:g=original	!	!	!	!	!	!	!	!	!	!	!	!	!	!	!	!	!	!	!	!	!	!	!	!LO:LB:g=original	!	!	!	!	!	!	!	!	!	!	!	!	!	!	!
=26	=26	=26	=26	=26	=26	=26	=26	=26	=26	=26	=26	=26	=26	=26	=26	=26	=26	=26	=26	=26	=26	=26	=26	=26	=26	=26	=26	=26	=26	=26	=26	=26	=26	=26	=26	=26	=26	=26	=26
!	!	!	!	!	!	!	!	!	!	!	!	!	!	!	!	!	!	!	!	!	!	!	!	!	!	!	!	!	!	!	!	!	!	!	!LO:DY:b:t=for	!	!	!	!
8.D\L|	.	.	16d\LL	.	16d\LL	.	16f#/LL|	.	16f#'/LL	.	8D\L	o-	8F#/L	o-	8d\L	o-	8f#/L	O-	.	4D\	.	4dd\	.	4ff#\	.	4D/	.	4d\	.	8D\L|	.	8D\L|	.	4dd\	f	4ff#\	.	8ff#'\L	.
.	.	.	16d\	.	16d\	.	16f#/|	.	16f#'/	.	.	.	.	.	.	.	.	.	.	.	.	.	.	.	.	.	.	.	.	.	.	.	.	.	.	.	.	.	.
.	.	.	16f#\	.	16f#\	.	16d/|	.	16d'/	.	8F#\J	.	8D/J	.	8f#\J	.	8d/J	.	.	.	.	.	.	.	.	.	.	.	.	8F#\|	.	8F#\|	.	.	.	.	.	8dd'\	.
16F#\K|	.	.	16f#\JJ	.	16f#\JJ	.	16d/JJ|	.	16d'/JJ	.	.	.	.	.	.	.	.	.	.	.	.	.	.	.	.	.	.	.	.	.	.	.	.	.	.	.	.	.	.
!	!	!	!	!	!	!	!	!	!	!	!	!	!LO:LB:g=original	!	!	!	!	!	!	!	!	!	!	!	!	!	!	!	!	!	!	!	!	!	!	!	!	!	!
8.E\|	.	.	16e\LL	.	16e\LL	.	16g/LL|	.	16g'/LL	.	8E\L	-ſan-	8G/L	-san-	8e\L	-ſan-	8g/L	-ſan-	.	4r	.	4r	.	4r	.	4r	.	4r	.	8G\|	.	8G\|	.	4r	.	4r	.	8gg'\	.
.	.	.	16e\	.	16e\	.	16g/|	.	16g'/	.	.	.	.	.	.	.	.	.	.	.	.	.	.	.	.	.	.	.	.	.	.	.	.	.	.	.	.	.	.
.	.	.	16g\	.	16g\	.	16e/|	.	16e'/	.	8G\J	.	8E/J	.	8g\J	.	8e/J	.	.	.	.	.	.	.	.	.	.	.	.	8E\|	.	8E\|	.	.	.	.	.	8ee'\	.
16G\K|	.	.	16g\JJ	.	16g\JJ	.	16e/JJ|	.	16e'/JJ	.	.	.	.	.	.	.	.	.	.	.	.	.	.	.	.	.	.	.	.	.	.	.	.	.	.	.	.	.	.
!	!	!	!	!	!LO:LB:g=original	!	!	!	!	!	!	!	!	!	!	!	!	!	!	!	!	!	!	!	!	!	!	!	!	!	!	!	!	!	!	!	!	!	!
8.F#\|	.	.	16f#\LL	.	16f#\LL	.	16a/LL|	.	16a'/LL	.	8F#\L	-na	8A/L	-na	8f#\L	-na	8a/L	-na	.	4r	.	4r	.	4r	.	4r	.	4r	.	8F#\|	.	8F#\|	.	4r	.	4r	.	8aa'\	.
.	.	.	16f#\	.	16f#\	.	16a/|	.	16a'/	.	.	.	.	.	.	.	.	.	.	.	.	.	.	.	.	.	.	.	.	.	.	.	.	.	.	.	.	.	.
.	.	.	16a\	.	16a\	.	16f#/|	.	16f#'/	.	8A\J	.	8F#/J	.	8a\J	.	8f#/J	.	.	.	.	.	.	.	.	.	.	.	.	8A\J|	.	8A\J|	.	.	.	.	.	8ff#'\J	.
16A\Jk|	.	.	16a\JJ	.	16a\JJ	.	16f#/JJ|	.	16f#'/JJ	.	.	.	.	.	.	.	.	.	.	.	.	.	.	.	.	.	.	.	.	.	.	.	.	.	.	.	.	.	.
!	!	!	!	!	!	!	!	!	!	!	!	!	!	!	!	!	!	!	!	!	!	!	!	!	!	!	!	!	!	!	!	!	!	!	!	!LO:LB:g=original	!	!	!
!	!	!	!	!	!	!	!	!	!	!	!	!	!	!	!	!	!	!	!	!	!	!LO:LB:g=original	!	!	!	!	!	!	!	!	!	!	!	!	!	!	!	!	!
=27	=27	=27	=27	=27	=27	=27	=27	=27	=27	=27	=27	=27	=27	=27	=27	=27	=27	=27	=27	=27	=27	=27	=27	=27	=27	=27	=27	=27	=27	=27	=27	=27	=27	=27	=27	=27	=27	=27	=27
*	*	*	*	*	*	*	*	*	*	*	*	*	*	*ij	*	*	*	*ij	*	*	*	*	*	*	*	*	*	*	*	*	*	*	*	*	*	*	*	*	*
!	!	!	!	!	!	!	!	!	!	!	!	!	!	!	!	!	!	!	!	!	!	!	!	!	!	!	!	!	!	!LO:TX:t=P:problem=mixed beam	!	!LO:TX:t=P:problem=mixed beam	!	!	!	!	!	!	!
!	!	!	!	!	!	!	!	!	!	!	!	!	!	!	!	!	!	!	!	!	!	!	!	!	!	!	!	!	!	!	!	!	!	!LO:TX:a:t=1	!	!LO:TX:t=P:problem=brak taktu nr 27	!	!	!
8.G\L|	.	.	16g\LL	.	16g\LL	.	16b\LL	.	16b/LL	.	8G\L	o-	8B/L	o-	8g\L	o-	8b\L	O-	.	2.r	.	2.r	.	2.r	.	2.r	.	2.r	.	8B\L|	.	8B\L|	.	2.r	.	2.ryy	.	8bb'\L	.
.	.	.	16g\	.	16g\	.	16b\	.	16b/	.	.	.	.	.	.	.	.	.	.	.	.	.	.	.	.	.	.	.	.	.	.	.	.	.	.	.	.	.	.
.	.	.	16e\	.	16b\	.	16g\	.	16g/	.	8E\J	.	8G/J	.	8b\J	.	8g\J	.	.	.	.	.	.	.	.	.	.	.	.	8G\|	.	8G\|	.	.	.	.	.	8gg'\	.
16B\K	.	.	16e\JJ	.	16b\JJ	.	16g\JJ	.	16g/JJ	.	.	.	.	.	.	.	.	.	.	.	.	.	.	.	.	.	.	.	.	.	.	.	.	.	.	.	.	.	.
8.A\	.	.	16a\LL	.	16a\LL	.	16cc#\LL	.	16cc#\LL	.	8A\L	-ſan-	8c#\L	-san-	8a\L	-ſan-	8cc#\L	-ſan-	.	.	.	.	.	.	.	.	.	.	.	8A\|	.	8A\|	.	.	.	.	.	8ccc#'\	.
.	.	.	16a\	.	16a\	.	16cc#\	.	16cc#\	.	.	.	.	.	.	.	.	.	.	.	.	.	.	.	.	.	.	.	.	.	.	.	.	.	.	.	.	.	.
.	.	.	16g\	.	16g\	.	16a\	.	16a\	.	8G\J	.	8A\J	.	8g\J	.	8a\J	.	.	.	.	.	.	.	.	.	.	.	.	8c#\|	.	8c#\|	.	.	.	.	.	8aa'\	.
16c#\K	.	.	16g\JJ	.	16g\JJ	.	16a\JJ	.	16a\JJ	.	.	.	.	.	.	.	.	.	.	.	.	.	.	.	.	.	.	.	.	.	.	.	.	.	.	.	.	.	.
8d\	.	.	16f#\LL	.	16f#\LL	.	16dd\LL	.	16dd\LL	.	8F#\L	-na	4d\	-na	4f#\	-na	4dd\	-na	.	.	.	.	.	.	.	.	.	.	.	8d\|	.	8d\|	.	.	.	.	.	8ddd'\	.
*	*	*	*	*	*	*	*	*	*	*	*	*	*	*Xij	*	*	*	*Xij	*	*	*	*	*	*	*	*	*	*	*	*	*	*	*	*	*	*	*	*	*
.	.	.	16f#\	.	16f#\	.	16dd\	.	16dd\	.	.	.	.	.	.	.	.	.	.	.	.	.	.	.	.	.	.	.	.	.	.	.	.	.	.	.	.	.	.
8D/J	.	.	16d\	.	16f#\	.	16a\	.	16a\	.	8D\J	.	.	.	.	.	.	.	.	.	.	.	.	.	.	.	.	.	.	8D/J	.	8D/J|>	.	.	.	.	.	8aa'\J	.
.	.	.	16d\JJ	.	16f#\JJ	.	16a\JJ	.	16a\JJ	.	.	.	.	.	.	.	.	.	.	.	.	.	.	.	.	.	.	.	.	.	.	.	.	.	.	.	.	.	.
=28	=28	=28	=28	=28	=28	=28	=28	=28	=28	=28	=28	=28	=28	=28	=28	=28	=28	=28	=28	=28	=28	=28	=28	=28	=28	=28	=28	=28	=28	=28	=28	=28	=28	=28	=28	=28	=28	=28	=28
!LO:TX:t=P:problem=mixed beam	!	!	!	!	!	!	!	!	!	!	!	!	!	!	!	!	!	!	!	!	!	!	!	!	!	!	!	!	!	!	!	!	!	!	!	!	!	!	!
!	!	!	!	!	!	!	!	!	!	!	!	!	!	!	!	!	!	!	!	!	!	!	!	!	!	!	!	!	!LO:DY:b:t=for	!	!	!	!	!	!	!	!	!	!
8.A\L	.	7 5	8.g\L	.	8.aL 8.e\	.	16ee\LL	.	16gg\LL	.	2C#/	in	2e\	in	2a\	in	2gg\	in	.	8AA/L	.	8a/L	.	8ee\L	.	8.A/L	.	8.e\L	f	8.AA/L	.	8.C#/L	.	4ee\	.	2gg\	.	2ccc#\	.
.	.	.	.	.	.	.	16dd\	.	16ff#\	.	.	.	.	.	.	.	.	.	.	.	.	.	.	.	.	.	.	.	.	.	.	.	.	.	.	.	.	.	.
.	.	.	.	.	.	.	16cc#\	.	16ee\	.	.	.	.	.	.	.	.	.	.	16AA/L	.	16a/L	.	16ee\L	.	.	.	.	.	.	.	.	.	.	.	.	.	.	.
16A\K	.	.	16g\K	.	16aK 16e\	.	16b\JJ	.	16dd\JJ	.	.	.	.	.	.	.	.	.	.	16AA/JJ	.	16a/JJ	.	16ee\JJ	.	16A/Jk	.	16e\Jk	.	16AA/K	.	16C#/K	.	.	.	.	.	.	.
8.AA/	.	.	8g\	.	8a 8e\	.	16a/LL	.	16cc#\LL	.	.	.	.	.	.	.	.	.	.	8AA/L	.	8a/L	.	8ee\L	.	8A/L	.	8e\L	.	8AA/	.	8C#/	.	4cc#\	.	.	.	.	.
.	.	.	.	.	.	.	16g/	.	16b\	.	.	.	.	.	.	.	.	.	.	.	.	.	.	.	.	.	.	.	.	.	.	.	.	.	.	.	.	.	.
.	.	.	8g\	.	8a 8e\	.	16f#/	.	16a\	.	.	.	.	.	.	.	.	.	.	8AA/J	.	8a/J	.	8ee\J	.	8A/	.	8e\J	.	8AA/	.	8C#/	.	.	.	.	.	.	.
16AA/Jk	.	.	.	.	.	.	16e/JJ	.	16g\JJ	.	.	.	.	.	.	.	.	.	.	.	.	.	.	.	.	.	.	.	.	.	.	.	.	.	.	.	.	.	.
!	!	!	!	!	!	!	!LO:TX:t=P:problem=mixed beam	!	!	!	!	!	!	!	!	!	!	!	!	!	!	!	!	!	!	!	!	!	!	!	!	!	!	!	!	!	!	!	!
8D\L	.	X 3	8f#\	.	8a 8f#\	.	16d/LL	.	(16f#\LL	.	4D/	ex-	4d\	ex-	4a\	ex-	4ff#\	ex-	.	4D\	.	8dd\L	.	8ff#\L	.	8d/	.	8f#\L	.	8D/	.	8D/	.	4dd\	.	4ff#\	.	4ddd\	.
.	.	.	.	.	.	.	16f#/	.	16dd\	.	.	.	.	.	.	.	.	.	.	.	.	.	.	.	.	.	.	.	.	.	.	.	.	.	.	.	.	.	.
8F#\J	.	X 6	8f#\J	.	8aJ 8f#\	.	16dd\	.	16aa\	.	.	.	.	.	.	.	.	.	.	.	.	8dd\J	.	8ff#\J	.	8d/J	.	8f#\J	.	8D/J	.	8D/J	.	.	.	.	.	.	.
.	.	.	.	.	.	.	16ff#\JJ	.	16ddd\JJ)	.	.	.	.	.	.	.	.	.	.	.	.	.	.	.	.	.	.	.	.	.	.	.	.	.	.	.	.	.	.
!	!	!	!	!	!	!	!	!	!	!	!	!	!	!	!	!	!	!	!	!	!	!	!	!	!	!	!	!LO:LB:g=original	!	!	!	!	!	!	!	!	!	!	!
=29	=29	=29	=29	=29	=29	=29	=29	=29	=29	=29	=29	=29	=29	=29	=29	=29	=29	=29	=29	=29	=29	=29	=29	=29	=29	=29	=29	=29	=29	=29	=29	=29	=29	=29	=29	=29	=29	=29	=29
!LO:TX:t=P:problem=mixed beam	!	!	!	!	!	!	!	!	!	!	!	!	!	!	!	!	!	!	!	!	!	!	!	!	!	!	!	!	!	!LO:TX:t=P:problem=mixed beam	!	!LO:TX:t=P:problem=mixed beam	!	!	!	!	!	!	!
8G\L	.	.	8g\L	.	8b\L	.	16gg\LL	.	16bb\LL	.	4r	.	4r	.	4r	.	4r	.	.	4r	.	4r	.	4r	.	4r	.	4r	.	8GG/L	.	8G\L	.	4ee\	.	4gg\	.	8bb\L	.
.	.	.	.	.	.	.	16gg\	.	16bb\	.	.	.	.	.	.	.	.	.	.	.	.	.	.	.	.	.	.	.	.	.	.	.	.	.	.	.	.	.	.
8E\	.	.	8e\J	.	8g\J	.	16ee\	.	16gg\	.	.	.	.	.	.	.	.	.	.	.	.	.	.	.	.	.	.	.	.	8G\	.	8E\	.	.	.	.	.	8ggg\J	.
.	.	.	.	.	.	.	16ee\JJ	.	16gg\JJ	.	.	.	.	.	.	.	.	.	.	.	.	.	.	.	.	.	.	.	.	.	.	.	.	.	.	.	.	.	.
*	*	*	*tremolo	*	*tremolo	*	*	*	*	*	*	*	*	*	*	*	*	*	*	*	*	*	*	*	*	*	*	*	*	*	*	*	*	*	*	*	*	*	*
8A\	.	X 4_	16f#\LL	.	16a\LL	.	(16dd\LL	.	(16ff#\LL	.	4A\	-cel-	4d\	-Cael-	2a\	-cel-	(4ff#\	-cel-	.	4D\	.	4dd\	.	4ff#\	.	4d\	.	4f#\	.	8A\	.	8A\	.	4dd\	.	4ff#\	.	4fff#\	.
.	.	.	16f#\	.	16a\	.	16ff#\)	.	16ddd\)	.	.	.	.	.	.	.	.	.	.	.	.	.	.	.	.	.	.	.	.	.	.	.	.	.	.	.	.	.	.
8A\	.	.	16f#\	.	16a\	.	16ff#'\	.	16ddd'\	.	.	.	.	.	.	.	.	.	.	.	.	.	.	.	.	.	.	.	.	8A\	.	8A\	.	.	.	.	.	.	.
.	.	.	16f#\JJ	.	16a\JJ	.	16ff#'\JJ	.	16ddd'\JJ	.	.	.	.	.	.	.	.	.	.	.	.	.	.	.	.	.	.	.	.	.	.	.	.	.	.	.	.	.	.
8AA/	.	X 3_	16g\LL	.	16a\LL	.	(16cc#\LL	.	(16ee\LL	.	4AA/	.	4c#\	.	.	.	4ee\)	.	.	4AA/	.	4a\	.	4ee\	.	4A/	.	4e\	.	8AA/	.	8AA/	.	4cc#\	.	4ee\	.	4eee\	.
.	.	.	16g\	.	16a\	.	16ee\)	.	16ccc#\)	.	.	.	.	.	.	.	.	.	.	.	.	.	.	.	.	.	.	.	.	.	.	.	.	.	.	.	.	.	.
8AA/J	.	.	16g\	.	16a\	.	16ee'\	.	16ccc#'\	.	.	.	.	.	.	.	.	.	.	.	.	.	.	.	.	.	.	.	.	8AA/J	.	8AA/J	.	.	.	.	.	.	.
.	.	X X	16g\JJ	.	16a\JJ	.	16ee\JJ'	.	16ccc#'\JJ	.	.	.	.	.	.	.	.	.	.	.	.	.	.	.	.	.	.	.	.	.	.	.	.	.	.	.	.	.	.
*	*	*	*Xtremolo	*	*Xtremolo	*	*	*	*	*	*	*	*	*	*	*	*	*	*	*	*	*	*	*	*	*	*	*	*	*	*	*	*	*	*	*	*	*	*
!	!	!	!	!	!	!	!	!	!LO:LB:g=original	!	!	!	!	!	!	!	!	!	!	!	!	!	!	!	!	!	!	!	!	!	!	!	!	!	!	!	!	!	!
=30	=30	=30	=30	=30	=30	=30	=30	=30	=30	=30	=30	=30	=30	=30	=30	=30	=30	=30	=30	=30	=30	=30	=30	=30	=30	=30	=30	=30	=30	=30	=30	=30	=30	=30	=30	=30	=30	=30	=30
!LO:TX:a:i:t=Solo	!LO:DY:a	!	!	!	!	!	!	!	!	!	!	!	!	!	!	!	!	!	!	!	!	!	!	!	!	!	!	!	!	!	!	!	!	!	!	!	!	!	!
4D/	.	.	4f#\	.	4a\	.	4ff#\	.	4ddd\	.	4D/	-ſis	4d\	-sis.	4f#\	-ſis	4dd\|	-ſis	.	4D\	.	4f#/	.	4dd\	.	4F#/	.	4d\	.	4D\	.	4D\	.	4dd\	.	4dd\	.	4ddd\	.
4d\	.	.	4r	.	8r	.	8r	.	8r	.	4r	.	4r	.	4r	.	4r	.	.	4r	.	4r	.	4r	.	8r	.	8r	.	4d\	.	4d\	.	4r	.	4r	.	4r	.
!	!	!	!	!	!	!	!LO:LB:g=original	!	!	!	!	!	!	!	!	!	!	!	!	!	!	!	!	!	!	!	!	!	!	!	!	!	!	!	!	!	!	!	!
!	!	!	!	!	!	!	!	!	!	!	!	!	!	!	!	!	!	!	!	!	!	!	!	!	!	!	!LO:DY:a:t=pia	!	!LO:DY:a:t=pia	!	!	!	!	!	!	!	!	!	!
!	!LO:DY:a:t=piano	!	!	!	!	!	!	!	!	!LO:DY:b	!	!	!	!	!	!	!	!	!	!	!	!	!	!	!	!	!	!	!	!	!	!	!	!	!	!	!	!	!
.	p	.	.	.	8a\|	.	8ff#\	.	8ccc#'\L	p	.	.	.	.	.	.	.	.	.	.	.	.	.	.	.	8F#'/L	p	8A'/L	p	.	.	.	.	.	.	.	.	.	.
!	!	!	!	!	!	!	!	!LO:DY:b:t=p&colon;	!	!	!	!	!	!	!	!	!	!	!	!	!	!	!	!	!	!	!	!	!	!	!	!	!	!	!	!	!	!	!
4r	.	.	4r	.	8f#\L|	.	8dd\L	p	8aa'\	.	4r	.	4r	.	4r	.	4r	.	.	4r	.	4r	.	4r	.	8D'/	.	8F#'/	.	4r	.	4r	.	4r	.	4r	.	4r	.
.	.	.	.	.	8a\J|	.	8ff#\J	.	8ccc#'\J	.	.	.	.	.	.	.	.	.	.	.	.	.	.	.	.	8F#'/J	.	8A'/J	.	.	.	.	.	.	.	.	.	.	.
!	!	!	!LO:LB:g=original	!	!	!	!	!	!	!	!	!	!	!	!	!	!	!	!	!	!	!	!	!	!	!	!	!	!	!	!	!	!	!	!	!	!	!	!
!	!	!	!	!	!	!	!	!	!	!	!	!	!	!	!	!	!	!	!	!	!	!	!	!	!	!	!	!	!	!	!	!LO:LB:g=original	!	!	!	!	!	!	!
!	!	!	!	!	!	!	!	!	!	!	!	!	!	!	!	!	!	!	!	!	!	!	!	!	!	!LO:LB:g=original	!	!	!	!	!	!	!	!	!	!	!	!	!
=31	=31	=31	=31	=31	=31	=31	=31	=31	=31	=31	=31	=31	=31	=31	=31	=31	=31	=31	=31	=31	=31	=31	=31	=31	=31	=31	=31	=31	=31	=31	=31	=31	=31	=31	=31	=31	=31	=31	=31
!	!	!	!	!	!	!	!	!	!	!	!LO:TX:a:t=3	!	!	!	!LO:TX:a:t=3.	!	!LO:TX:a:t=3.	!	!	!	!	!	!	!	!	!	!	!	!	!	!	!	!	!	!	!	!	!LO:TX:a:t=1	!
4D\	.	.	4d\	.	4f#\	.	4dd\	.	4ff#\	.	1.r	.	1.r	.	1.r	.	1.r	.	.	2.r	.	2.r	.	2.r	.	4D/	.	4F#/	.	4D\	.	4D/	.	4r	.	4r	.	2.r	.
4d\	.	.	4r	.	4r	.	8r	.	8r	.	.	.	.	.	.	.	.	.	.	.	.	.	.	.	.	4r	.	4r	.	4d\	.	4d\	.	8r	.	8r	.	.	.
!	!	!	!	!	!	!	!	!	!	!	!	!	!	!	!	!	!	!	!	!	!	!	!	!	!	!	!	!	!	!	!	!	!	!	!LO:DY:b:t=p&colon;	!	!	!	!
.	.	.	.	.	.	.	8f#/L|	.	8a'/L	.	.	.	.	.	.	.	.	.	.	.	.	.	.	.	.	.	.	.	.	.	.	.	.	8ff#\L	p	8aa\L	pp	.	.
4r	.	.	4d\	.	4r	.	8d/|	.	8f#'/	.	.	.	.	.	.	.	.	.	.	.	.	.	.	.	.	4r	.	4r	.	4r	.	4r	.	8dd\	.	8ff#\	.	.	.
.	.	.	.	.	.	.	8f#/J|	.	8a'/J	.	.	.	.	.	.	.	.	.	.	.	.	.	.	.	.	.	.	.	.	.	.	.	.	8ff#\J	.	8aa\J	.	.	.
=32	=32	=32	=32	=32	=32	=32	=32	=32	=32	=32	=32	=32	=32	=32	=32	=32	=32	=32	=32	=32	=32	=32	=32	=32	=32	=32	=32	=32	=32	=32	=32	=32	=32	=32	=32	=32	=32	=32	=32
!	!	!	!	!	!	!	!	!	!	!LO:DY:b:t=for	!	!	!	!	!	!	!	!	!	!	!	!	!	!	!	!	!	!	!	!	!	!	!	!	!	!	!	!	!
4D\	.	8_ 3_	4d\	.	4r	.	4d/	.	4f#/	f	.	.	.	.	.	.	.	.	.	4r	.	4r	.	4r	.	4r	.	4r	.	4D/	.	4D/	.	4dd\	.	4ff#\	.	4r	.
!	!	!	!	!	!	!	!	!LO:DY:b:t=f&colon;	!	!	!	!	!	!	!	!	!	!	!	!	!	!	!	!	!	!	!	!	!	!	!	!	!	!	!	!	!	!	!
!	!	!	!	!	!	!	!	!	!	!	!	!	!	!	!	!	!	!	!	!	!	!	!	!	!	!	!	!	!LO:DY:b:t=for	!	!	!	!	!	!	!	!	!	!
4A\	.	.	4f#\	.	4a 4d\	.	4ff# 4a 4d/	f	4ff# 4a 4d/	.	.	.	.	.	.	.	.	.	.	4D\	.	4dd\	.	4ff#\	.	4F#/	.	4d\	f	4AA/	.	4AA/	.	4dd\	.	4ff#\	.	4ddd\	.
4F#\	.	.	4f#\	.	4a 4d\	.	4ff# 4a 4d/	.	4ff# 4a 4d/	.	.	.	.	.	.	.	.	.	.	4D\	.	4dd\	.	4ff#\	.	4F#/	.	4d\	.	4FF#/	.	4FF#/	.	4dd\	.	4ff#\	.	4ddd\	.
=33	=33	=33	=33	=33	=33	=33	=33	=33	=33	=33	=33	=33	=33	=33	=33	=33	=33	=33	=33	=33	=33	=33	=33	=33	=33	=33	=33	=33	=33	=33	=33	=33	=33	=33	=33	=33	=33	=33	=33
*2\right	*	*	*	*	*	*	*	*	*	*	*	*	*	*	*	*	*	*	*	*	*	*2\right	*	*	*	*	*	*	*	*	*	*	*	*	*	*	*	*	*
2D\	.	X X	2f#\	.	2a 2d\	.	2ff# 2a 2d/	.	2ff# 2a 2d/	.	2.r	.	2.r	.	2.r	.	2.r	.	.	2D\	.	2dd\	.	2ff#\	.	2F#/	.	2d\	.	2DD/	.	2DD/	.	2dd\	.	2ff#\	.	2ddd\	.
4r	.	.	4r	.	4r	.	4r	.	4r	.	.	.	.	.	.	.	.	.	.	4r	.	4r	.	4r	.	4r	.	4r	.	4r	.	4r	.	4r	.	4r	.	4r	.
==	==	==	==	==	==	==	==	==	==	==	==	==	==	==	==	==	==	==	==	==	==	==	==	==	==	==	==	==	==	==	==	==	==	==	==	==	==	==	==
*-	*-	*-	*-	*-	*-	*-	*-	*-	*-	*-	*-	*-	*-	*-	*-	*-	*-	*-	*-	*-	*-	*-	*-	*-	*-	*-	*-	*-	*-	*-	*-	*-	*-	*-	*-	*-	*-	*-	*-
!!!system-decoration: [(g1)][(g2)][(s10)][(g3)][(g4)][(s19)]
!!!RDF**dynam: f = "for.", 'fontstyle="italic"
!!!RDF**dynam: p = "pia.", 'fontstyle="italic"
!!!RDF**kern: > = above
!!!RDF**kern: < = below
!!!RDF**kern: | = vertical stroke
!!!ENC: Andrzej Kubiczek
!!!END: 2020-10-25
!!!EED: Antoni Szymański
!!!EEV: 2022-03-31
!!!YEC: Copyright 2022 Narodowy Instytut Fryderyka Chopina (https://polishscores.org)
!!!YEM: Licence CC BY 4.0 (https://creativecommons.org/licenses/by/4.0)
